!!!!SEGMENT: pl-sa--78-a-ii-18--004_kraus-lambert--requiem-ex-dis-responde-mihi.krn
!!!cenid: 17xx:1685
!!!COM: Kraus, Lambert
!!!COM-rismID: pe30001779
!!!CDT: 1728-1790
!!!CNT:
!!!OPR: Requiem ex Dis
!!!OTL: Responde mihi
!!!OMV: 005
!!!PDT:
!!!AGN: Sacred; Requiem
!!!SMS-siglum: PL-SA
!!!SMS-shelfmark: 78/A II 18
!!!SMS-shelfwork: 001-005 M
!!!SMS-variant:
!!!SMS-altvar:
!!!NIFC-rismSourceID: 1001070176
!!!NIFC-rismChildID: 1001070176
!!!NIFC-islandoraID: none
!!!URL-pdf-islandora:
!!!URL-scan: https://bc.bdsandomierz.pl/dlibra/publication/1355/edition/1323/content @EN{Scan in the Sandomierz Diocese Digital Library} @PL{Skany w portalu Cyfrowa Biblioteka Diecezjalna w Sandomierzu}
!!!ONB-nifc: UWAGA: części Requiem: 1. Requiem, 2. Kyrie, 3. Dies irae, 4. Responde mihi, 5. Sanctus, 6. Benedictus, 7. Agnus Dei, 8. Lux aeterna
!!!AIN: 1 alto 1 bass 2 cor 1 organ 1 soprn 1 tenor 2 violn
!!!key: E-
**kern	**dynam	**kern	**dynam	**kern	**dynam	**kern	**text	**kern	**text	**kern	**text	**kern	**text	**kern	**kern
*part9	*part9	*part8	*part8	*part7	*part7	*part6	*part6	*part5	*part5	*part4	*part4	*part3	*part3	*part2	*part1
*staff9	*	*staff8	*	*staff7	*	*staff6	*staff6	*staff5	*staff5	*staff4	*staff4	*staff3	*staff3	*staff2	*staff1
*I"Organo	*	*I"Violino 2do	*	*I"Violino 1mo	*	*I"Baſso	*	*I"Tenore	*	*I"Alto	*	*I"Canto	*	*I"Cornu 2do ex Dis	*I"Cornu 1mo ex Dis
*I'org	*	*I'vl 2	*	*I'vl 1	*	*I'B	*	*I'T	*	*I'A	*	*I'S	*	*I'cor 2	*I'cor 1
*Iorgan	*	*Ivioln	*	*Ivioln	*	*Ibass	*	*Itenor	*	*Ialto	*	*Isoprn	*	*Icor	*Icor
*ICklav	*	*ICstr	*	*ICstr	*	*ICvox	*	*ICvox	*	*ICvox	*	*ICvox	*	*ICbras	*ICbras
*clefF4	*	*clefG2	*	*clefG2	*	*clefF4	*	*clefC4	*	*clefC3	*	*clefC1	*	*clefG2	*clefG2
*	*	*	*	*	*	*	*	*	*	*	*	*	*	*ITrd-2c-3	*ITrd-2c-3
*k[a-b-e-]	*	*k[e-b-a-]	*	*k[e-b-a-]	*	*k[]	*	*k[a-b-e-]	*	*k[a-b-e-]	*	*k[a-b-e-]	*	*k[b-e-a-]	*k[b-e-a-]
*E-:	*	*E-:	*	*E-:	*	*E-:	*	*E-:	*	*E-:	*	*E-:	*	*	*
*M4/4	*	*M4/4	*	*M4/4	*	*M4/4	*	*M4/4	*	*M4/4	*	*M4/4	*	*M4/4	*M4/4
*met(c)	*	*met(c)	*	*met(c)	*	*met(c)	*	*met(c)	*	*met(c)	*	*met(c)	*	*met(c)	*met(c)
=1	=1	=1	=1	=1	=1	=1	=1	=1	=1	=1	=1	=1	=1	=1	=1
*2\right	*2\right	*2\right	*2\right	*2\right	*2\right	*2\right	*2\right	*2\right	*2\right	*2\right	*2\right	*2\right	*2\right	*2\right	*2\right
!!LO:TX:t=P:problem:f=ffor
!!LO:TX:t=P:problem:p=pia
!LO:TX:t=P:znaki:problem= A- zamiast AA-	!	!	!	!	!	!	!	!	!	!	!	!LO:TX:t=P:znaki:problem= ee- zamiast e-	!	!	!
!LO:TX:a:i:t=Offertorium	!	!LO:TX:a:i:t=Offertorium	!	!LO:TX:a:i:t=Offertorium	!	!	!	!LO:TX:t=P:znaki:problem= d- zamiast B-	!	!LO:TX:t=P:znaki:problem= błędnie G- zamiast A-, A- zamiast B-	!	!LO:TX:a:i:t=Offertori	!	!LO:TX:a:i:t=Offertorium	!LO:TX:a:i:t=Offertorium
!LO:TX:a:i:t=Recitativo	!	!LO:TX:a:i:t=Recitativo	!	!LO:TX:a:i:t=Recitativo	!	!LO:TX:a:i:t=Offertor(iu)m	!	!LO:TX:a:i:t=Offertor(iu)m	!	!LO:TX:a:i:t=Offertorium	!	!LO:TX:a:i:t=Recitativo	!	!LO:TX:a:i:t=Recitativo	!LO:TX:a:i:t=Recitativo
4BB-/	.	8g/L	.	8b-/L	.	00r	.	00r	.	00r	.	8r	.	00r	00r
.	.	8r	.	8r	.	.	.	.	.	.	.	8f\	Res-	.	.
4r	.	8b-/J	.	8b-/J	.	.	.	.	.	.	.	8b-\	-pon-	.	.
.	.	8r	.	8r	.	.	.	.	.	.	.	8dd\	-de	.	.
2r	.	8cc/L	.	8cc\L	.	.	.	.	.	.	.	8cc\	mi-	.	.
.	.	8r	.	8b-\J	.	.	.	.	.	.	.	8b-\	-hi	.	.
.	.	8b-/J	.	4r	.	.	.	.	.	.	.	4r	.	.	.
.	.	8r	.	.	.	.	.	.	.	.	.	.	.	.	.
=2	=2	=2	=2	=2	=2	=2	=2	=2	=2	=2	=2	=2	=2	=2	=2
!	!	!	!	!	!	!	!	!	!	!	!	!LO:N:vis=4	!	!	!
4FF/	.	8f/L	.	8f/L	.	.	.	.	.	.	.	8r	.	.	.
.	.	8r	.	8r	.	.	.	.	.	.	.	8cc\	qvan-	.	.
4r	.	8cc/J	.	8cc/J	.	.	.	.	.	.	.	8a-\	.	.	.
.	.	8r	.	8r	.	.	.	.	.	.	.	8f\	-tas	.	.
2r	.	8g/L	.	8g/L	.	.	.	.	.	.	.	16f\	ha-	.	.
.	.	.	.	.	.	.	.	.	.	.	.	16f\	-beo	.	.
.	.	8r	.	8r	.	.	.	.	.	.	.	8r	.	.	.
.	.	8f/J	.	8f/J	.	.	.	.	.	.	.	16r	.	.	.
.	.	.	.	.	.	.	.	.	.	.	.	16f/	i-	.	.
.	.	8r	.	8r	.	.	.	.	.	.	.	16f/	-ni-	.	.
.	.	.	.	.	.	.	.	.	.	.	.	16f/	-qvi-	.	.
=3	=3	=3	=3	=3	=3	=3	=3	=3	=3	=3	=3	=3	=3	=3	=3
1r	.	8e-/L	.	8e-/L	.	.	.	.	.	.	.	8f/	-ta-	.	.
.	.	8r	.	8r	.	.	.	.	.	.	.	8e-/	-tes	.	.
.	.	8e-/J	.	8e-/J	.	.	.	.	.	.	.	4r	.	.	.
!	!	!LO:LB:g=original	!	!LO:LB:g=original	!	!	!	!	!	!	!	!	!	!	!
.	.	8r	.	8r	.	.	.	.	.	.	.	.	.	.	.
!	!	!	!	!	!	!	!	!	!	!	!	!LO:LB:g=original	!	!	!
.	.	8e-/L	.	8e-/L	.	.	.	.	.	.	.	16e-/	et	.	.
.	.	.	.	.	.	.	.	.	.	.	.	16f/	pec-	.	.
.	.	8d/J	.	8d/J	.	.	.	.	.	.	.	16e-/	-ca-	.	.
.	.	.	.	.	.	.	.	.	.	.	.	16d/	-ta	.	.
.	.	4r	.	8r	.	.	.	.	.	.	.	4r	.	.	.
.	.	.	.	8r	.	.	.	.	.	.	.	.	.	.	.
=4	=4	=4	=4	=4	=4	=4	=4	=4	=4	=4	=4	=4	=4	=4	=4
4BB-/	.	8d/L	.	8B-/L	.	.	.	.	.	.	.	4.r	.	.	.
.	.	8r	.	8r	.	.	.	.	.	.	.	.	.	.	.
4r	.	8f/J	.	8f/J	.	.	.	.	.	.	.	.	.	.	.
.	.	8r	.	8r	.	.	.	.	.	.	.	8f/	ſce-	.	.
2r	.	8a-X/L	.	8a-X/L	.	.	.	.	.	.	.	16f/	-le-	.	.
.	.	.	.	.	.	.	.	.	.	.	.	16g/	-ra	.	.
.	.	8r	.	8r	.	.	.	.	.	.	.	16a-X\	me-	.	.
.	.	.	.	.	.	.	.	.	.	.	.	16a-\	-a	.	.
.	.	8a-/J	.	8a-/J	.	.	.	.	.	.	.	8r	.	.	.
.	.	8r	.	8r	.	.	.	.	.	.	.	16a-\	et	.	.
.	.	.	.	.	.	.	.	.	.	.	.	16b-\	de-	.	.
=5	=5	=5	=5	=5	=5	=5	=5	=5	=5	=5	=5	=5	=5	=5	=5
2r	.	8g/	.	8g/	.	0r	.	0r	.	0r	.	8g\	-lic-	0r	0r
.	.	8r	.	8r	.	.	.	.	.	.	.	8g\	-ta	.	.
.	.	4r	.	4r	.	.	.	.	.	.	.	4r	.	.	.
8r	.	8r	.	8r	.	.	.	.	.	.	.	2r	.	.	.
8E-\L	.	8B-/L	.	8g/L	.	.	.	.	.	.	.	.	.	.	.
8E-\	.	8B-/	.	8g/	.	.	.	.	.	.	.	.	.	.	.
8E-\J	.	8B-/J	.	8g/J	.	.	.	.	.	.	.	.	.	.	.
=6	=6	=6	=6	=6	=6	=6	=6	=6	=6	=6	=6	=6	=6	=6	=6
*	*	*	*	*^	*	*	*	*	*	*	*	*	*	*	*
4C/	.	8en/L	.	8b-/L	2.ryy	.	.	.	.	.	.	.	8r	.	.	.
.	.	8r	.	8r	.	.	.	.	.	.	.	.	16r	.	.	.
.	.	.	.	.	.	.	.	.	.	.	.	.	16b-\	Os-	.	.
4r	.	8b-/J	.	8b-/J	.	.	.	.	.	.	.	.	8b-\	-ten-	.	.
.	.	8r	.	8r	.	.	.	.	.	.	.	.	8cc\	-de	.	.
4r	.	8b-/L	.	8b-/L	.	.	.	.	.	.	.	.	8b-\	mi-	.	.
!	!	!LO:SIC:v:s=8an/J	!	!LO:SIC:v:s=8an/J	!	!	!	!	!	!	!	!	!	!	!	!
.	.	8a-/J	.	8a-/J	.	.	.	.	.	.	.	.	8an\	-hi	.	.
8r	.	8r	.	8r	8ryy	.	.	.	.	.	.	.	4r	.	.	.
16r	.	16r	.	16r	16ryy	.	.	.	.	.	.	.	.	.	.	.
16C/	.	16g/	.	16een/	16b-\	.	.	.	.	.	.	.	.	.	.	.
*	*	*	*	*v	*v	*	*	*	*	*	*	*	*	*	*	*
=7	=7	=7	=7	=7	=7	=7	=7	=7	=7	=7	=7	=7	=7	=7	=7
!LO:TX:t=P:problem=brak jednego taktu	!	!LO:SIC:v:s=4an/	!	!LO:SIC:v:n=2:s=4an/	!	!	!	!	!	!	!	!	!	!	!
1ryy	.	4a-/	.	4ff 4a-/	.	1r	.	1r	.	1r	.	1r	.	1r	1r
!	!	!LO:TX:t=P:problem=brak pauzy półnutowej	!	!	!	!	!	!	!	!	!	!	!	!	!
.	.	4r	.	4r	.	.	.	.	.	.	.	.	.	.	.
.	.	2ryy	.	2r	.	.	.	.	.	.	.	.	.	.	.
!LO:LB:g=original	!	!LO:LB:g=original	!	!LO:LB:g=original	!	!	!	!	!	!	!	!LO:LB:g=original	!	!	!
=8||	=8||	=8||	=8||	=8||	=8||	=8||	=8||	=8||	=8||	=8||	=8||	=8||	=8||	=8||	=8||
*	*	*	*	*	*	*	*	*	*	*	*	*	*	*ITrd1c2	*ITrd1c2
*k[e-b-]	*	*k[e-b-]	*	*k[e-b-]	*	*k[]	*	*k[b-e-]	*	*k[b-e-]	*	*k[b-e-]	*	*k[b-e-]	*k[b-e-]
*B-:	*	*B-:	*	*B-:	*	*B-:	*	*B-:	*	*B-:	*	*B-:	*	*	*
*M3/4	*	*M3/4	*	*M3/4	*	*M3/4	*	*M3/4	*	*M3/4	*	*M3/4	*	*M3/4	*M3/4
!	!	!LO:TX:b:i:t=Curfaciem	!	!LO:TX:b:i:t=Cur faciem	!	!	!	!	!	!	!	!LO:TX:t=P:znaki:problem= ee- zamiast e-	!	!	!
!LO:TX:a:i:t=Aria	!	!LO:TX:a:i:t=Aria	!	!LO:TX:a:i:t=Aria	!	!LO:TX:a:i:t=Aria\nTacet	!	!LO:TX:a:i:t=Aria\nTacet	!	!LO:TX:a:i:t=Aria Tacet	!	!LO:TX:a:t=11	!	!LO:TX:a:B:t=ex B.	!LO:TX:a:B:t=ex B.
!	!	!	!	!	!	!	!	!	!	!	!	!LO:N:vis=00	!	!	!
4BB-/	.	8d/L	.	(8b-\L	.	2.ryy	.	2.ryy	.	2.ryy	.	0.r	.	4r	4r
.	.	8c/	.	8a\)	.	.	.	.	.	.	.	.	.	.	.
4r	.	(8e-/	.	(8cc\	.	.	.	.	.	.	.	.	.	4r	4r
.	.	8d/)	.	8b-\)	.	.	.	.	.	.	.	.	.	.	.
4r	.	(8b-/	.	(8dd\	.	.	.	.	.	.	.	.	.	8b-\L	8dd\L
.	.	8a/J)	.	8cc\J)	.	.	.	.	.	.	.	.	.	8f\J	8cc\J
=9	=9	=9	=9	=9	=9	=9	=9	=9	=9	=9	=9	=9	=9	=9	=9
4r	.	16cc\LL	.	16ee-\LL	.	2.ryy	.	2.ryy	.	2.ryy	.	.	.	16cc\LL	16ee-\LL
.	.	16b-\	.	16dd\	.	.	.	.	.	.	.	.	.	16b-\	16dd\
.	.	16ee-\	.	16gg\	.	.	.	.	.	.	.	.	.	16ee-\	16gg\
.	.	16dd\JJ	.	16ff\JJ	.	.	.	.	.	.	.	.	.	16dd\JJ	16ff\JJ
8r	.	4dd\	.	4ff\	.	.	.	.	.	.	.	.	.	4dd\	4ff\
!LO:TX:t=P:problem=mixed beam	!	!	!	!	!	!	!	!	!	!	!	!	!	!	!
8B-\L	.	.	.	.	.	.	.	.	.	.	.	.	.	.	.
8F\	.	4r	.	4r	.	.	.	.	.	.	.	.	.	4r	4r
8BB-/J	.	.	.	.	.	.	.	.	.	.	.	.	.	.	.
=10	=10	=10	=10	=10	=10	=10	=10	=10	=10	=10	=10	=10	=10	=10	=10
*	*	*	*	*	*below	*	*	*	*	*	*	*	*	*	*
!	!	!	!	!	!	!	!	!	!	!	!	!	!	!LO:TX:a:t=1	!
4BB-/	p	(8d/L	p	(8b-\L	p	2.ryy	.	2.ryy	.	2.ryy	.	.	.	2.r	2.r
.	.	8c/)	.	8a\)	.	.	.	.	.	.	.	.	.	.	.
4r	.	(8e-/	.	(8cc\	.	.	.	.	.	.	.	.	.	.	.
.	.	8d/)	.	8b-\)	.	.	.	.	.	.	.	.	.	.	.
4r	.	(8b-/	.	(8dd\	.	.	.	.	.	.	.	.	.	.	.
.	.	8a/J)	.	8cc\J)	.	.	.	.	.	.	.	.	.	.	.
!	!	!	!	!	!	!	!	!	!	!	!	!	!	!LO:PB:g=original	!LO:LB:g=original
=11	=11	=11	=11	=11	=11	=11	=11	=11	=11	=11	=11	=11	=11	=11	=11
4r	.	16cc\LL	.	16ee-\LL	.	2.ryy	.	2.ryy	.	2.ryy	.	.	.	4r	4r
.	.	16b-\	.	16dd\	.	.	.	.	.	.	.	.	.	.	.
.	.	16ee-\	.	16gg\	.	.	.	.	.	.	.	.	.	.	.
.	.	16dd\JJ	.	16ff\JJ	.	.	.	.	.	.	.	.	.	.	.
8r	.	4dd\	.	4ff\	.	.	.	.	.	.	.	.	.	8r	8r
!	!	!	!	!	!	!	!	!	!	!	!	!	!	!LO:SIC:v:s=8dd\L	!
8B-\	.	.	.	.	.	.	.	.	.	.	.	.	.	8cc\L	8ff\L
!	!	!	!	!	!	!	!	!	!	!	!	!	!	!LO:SIC:v:s=8dd\	!
4BB-/	.	4r	.	4r	.	.	.	.	.	.	.	.	.	8cc\	8ff\
!	!	!	!	!	!	!	!	!	!	!	!	!	!	!LO:SIC:v:s=8dd\J	!
.	.	.	.	.	.	.	.	.	.	.	.	.	.	8cc\J	8ff\J
!	!	!	!	!LO:LB:g=original	!	!	!	!	!	!	!	!	!	!	!
=12	=12	=12	=12	=12	=12	=12	=12	=12	=12	=12	=12	=12	=12	=12	=12
!	!	!	!	!	!	!	!	!	!	!	!	!LO:N:vis=00	!	!	!
4E-\	f	16gg\LL	.	16gg\LL	f	2.ryy	.	2.ryy	.	2.ryy	.	0.r	.	4ee-\	4gg\
.	.	16ee-\	.	16ee-\	.	.	.	.	.	.	.	.	.	.	.
.	.	16ee-\	.	16ee-\	.	.	.	.	.	.	.	.	.	.	.
.	.	16dd\JJ	.	16dd\JJ	.	.	.	.	.	.	.	.	.	.	.
!	!	!LO:LB:g=original	!	!	!	!	!	!	!	!	!	!	!	!	!
4r	.	16dd\LL	.	16dd\LL	.	.	.	.	.	.	.	.	.	4r	4r
.	.	16cc\	.	16cc\	.	.	.	.	.	.	.	.	.	.	.
.	.	16cc\	.	16cc\	.	.	.	.	.	.	.	.	.	.	.
.	.	16b-\JJ	.	16b-\JJ	.	.	.	.	.	.	.	.	.	.	.
4C\	.	16b-\LL	.	16b-/LL	.	.	.	.	.	.	.	.	.	4r	4r
.	.	16a\	.	16a/	.	.	.	.	.	.	.	.	.	.	.
.	.	16a\	.	16a/	.	.	.	.	.	.	.	.	.	.	.
.	.	16g\JJ	.	16g/JJ	.	.	.	.	.	.	.	.	.	.	.
=13	=13	=13	=13	=13	=13	=13	=13	=13	=13	=13	=13	=13	=13	=13	=13
4F\	.	4a/	.	4a/	.	2.ryy	.	2.ryy	.	2.ryy	.	.	.	4r	4r
!LO:SIC:v:s=4BB-/	!	!	!	!	!	!	!	!	!	!	!	!	!	!	!
4FF/	.	4f/	.	4f/	.	.	.	.	.	.	.	.	.	4f/	4b-\
4r	.	4r	.	4r	.	.	.	.	.	.	.	.	.	4r	4r
=14	=14	=14	=14	=14	=14	=14	=14	=14	=14	=14	=14	=14	=14	=14	=14
4E-\	.	16gg\LL	.	16gg\LL	.	2.ryy	.	2.ryy	.	2.ryy	.	.	.	4ee-\	4gg\
.	.	16ee-\	.	16ee-\	.	.	.	.	.	.	.	.	.	.	.
.	.	16bb-\	.	16bb-\	.	.	.	.	.	.	.	.	.	.	.
.	.	16ff\JJ	.	16ff\JJ	.	.	.	.	.	.	.	.	.	.	.
4D\	.	4ff\	.	4ff\	.	.	.	.	.	.	.	.	.	4dd\	4ff\
4F\	.	16ee-\LL	.	16ee-\LL	.	.	.	.	.	.	.	.	.	4cc\	4ee-\
.	.	16cc\	.	16cc\	.	.	.	.	.	.	.	.	.	.	.
.	.	16gg\	.	16gg\	.	.	.	.	.	.	.	.	.	.	.
.	.	16ee-\JJ	.	16ee-\JJ	.	.	.	.	.	.	.	.	.	.	.
!LO:LB:g=original	!	!	!	!	!	!	!	!	!	!	!	!	!	!	!
=15	=15	=15	=15	=15	=15	=15	=15	=15	=15	=15	=15	=15	=15	=15	=15
4B-\	.	4dd\	.	4dd\	.	2.ryy	.	2.ryy	.	2.ryy	.	.	.	4b-\	4dd\
4E-\	.	16cc\LL	.	16cc\LL	.	.	.	.	.	.	.	.	.	4r	4r
.	.	16bn\	.	16bn\	.	.	.	.	.	.	.	.	.	.	.
.	.	16cc\	.	16cc\	.	.	.	.	.	.	.	.	.	.	.
.	.	16dd\JJ	.	16dd\JJ	.	.	.	.	.	.	.	.	.	.	.
4F\	.	16ee-\LL	.	16ee-\LL	.	.	.	.	.	.	.	.	.	4r	4r
.	.	16dd\	.	16dd\	.	.	.	.	.	.	.	.	.	.	.
.	.	16dd\	.	16dd\	.	.	.	.	.	.	.	.	.	.	.
.	.	16cc\JJ	.	16cc\JJ	.	.	.	.	.	.	.	.	.	.	.
!	!	!	!	!LO:LB:g=original	!	!	!	!	!	!	!	!	!	!	!
=16	=16	=16	=16	=16	=16	=16	=16	=16	=16	=16	=16	=16	=16	=16	=16
!	!	!	!	!	!	!	!	!	!	!	!	!LO:N:vis=0	!	!	!
4BB-/	.	16r	.	16r	.	2.ryy	.	2.ryy	.	2.ryy	.	1.r	.	4b-\	4dd\
.	.	16b-\LL	.	16b-X\LL	.	.	.	.	.	.	.	.	.	.	.
.	.	16cc\	.	16cc\	.	.	.	.	.	.	.	.	.	.	.
.	.	16dd\JJ	.	16dd\JJ	.	.	.	.	.	.	.	.	.	.	.
!	!	!LO:LB:g=original	!	!	!	!	!	!	!	!	!	!	!	!	!
4r	.	16ee-\LL	.	16ee-\LL	.	.	.	.	.	.	.	.	.	4r	4r
.	.	16ff\	.	16ff\	.	.	.	.	.	.	.	.	.	.	.
.	.	16gg\	.	16gg\	.	.	.	.	.	.	.	.	.	.	.
.	.	16aa\JJ	.	16aa\JJ	.	.	.	.	.	.	.	.	.	.	.
4r	.	16bb-\LL	.	16bb-\LL	.	.	.	.	.	.	.	.	.	4r	4r
.	.	16ff\	.	16ff\	.	.	.	.	.	.	.	.	.	.	.
.	.	16dd\	.	16dd\	.	.	.	.	.	.	.	.	.	.	.
.	.	16b-\JJ	.	16b-\JJ	.	.	.	.	.	.	.	.	.	.	.
=17	=17	=17	=17	=17	=17	=17	=17	=17	=17	=17	=17	=17	=17	=17	=17
4E-\	.	16cc\LL	.	16cc\LL	.	2.ryy	.	2.ryy	.	2.ryy	.	.	.	4r	4r
.	.	16bn\	.	16bn\	.	.	.	.	.	.	.	.	.	.	.
.	.	16cc\	.	16cc\	.	.	.	.	.	.	.	.	.	.	.
.	.	16b\JJ	.	16b\JJ	.	.	.	.	.	.	.	.	.	.	.
4E-\	.	16cc\LL	.	16cc\LL	.	.	.	.	.	.	.	.	.	8r	8r
.	.	16b\	.	16bn\	.	.	.	.	.	.	.	.	.	.	.
.	.	16cc\	.	16cc\	.	.	.	.	.	.	.	.	.	16r	16r
.	.	16ee-\JJ	.	16ee-\JJ	.	.	.	.	.	.	.	.	.	16ee-\	16gg\
!	!	!	!	!	!	!	!	!	!	!	!	!	!	!LO:LB:g=original	!
4F\	.	16ee-X\LL	.	(16ee-\LL	.	.	.	.	.	.	.	.	.	16ee-\LL	16gg\LL
.	.	16dd\	.	16dd\)	.	.	.	.	.	.	.	.	.	16dd\	16ff\
.	.	16dd\	.	(16dd\	.	.	.	.	.	.	.	.	.	16dd\	16ff\
.	.	16cc\JJ	.	16cc\JJ)	.	.	.	.	.	.	.	.	.	16cc\JJ	16ee-\JJ
!	!	!	!	!	!	!	!	!	!	!	!	!	!	!	!LO:PB:g=original
=18	=18	=18	=18	=18	=18	=18	=18	=18	=18	=18	=18	=18	=18	=18	=18
!LO:TX:t=P:problem=mixed beam	!	!	!	!	!	!	!	!	!	!	!	!	!	!	!
8BB-|>/L	.	4b-/	.	4b-/	.	2.ryy	.	2.ryy	.	2.ryy	.	2.r	.	4b-\	4dd\
8B-|\	.	.	.	.	.	.	.	.	.	.	.	.	.	.	.
8F|\	.	4B-/	.	4B-/	.	.	.	.	.	.	.	.	.	4b-\	4dd\
8B-|\	.	.	.	.	.	.	.	.	.	.	.	.	.	.	.
8D|\	.	4r	.	4r	.	.	.	.	.	.	.	.	.	4r	4r
8F|\J	.	.	.	.	.	.	.	.	.	.	.	.	.	.	.
=19	=19	=19	=19	=19	=19	=19	=19	=19	=19	=19	=19	=19	=19	=19	=19
!	!	!	!	!	!	!	!	!	!	!	!	!	!	!LO:N:vis=00	!LO:N:vis=00
4BB-/	.	8d/L	p	8b-\L	p	2.ryy	.	2.ryy	.	2.ryy	.	8b-\L	Cur	0.r	0.r
.	.	8c/	.	8a\	.	.	.	.	.	.	.	8a\J	.	.	.
4r	.	8e-/	.	8cc\	.	.	.	.	.	.	.	8cc\L	fa-	.	.
.	.	8d/	.	8b-\	.	.	.	.	.	.	.	8b-\J	.	.	.
4r	.	8b-/	.	8dd\	.	.	.	.	.	.	.	8dd\	-ci-	.	.
.	.	8a/J	.	8cc\J	.	.	.	.	.	.	.	8cc\	-em	.	.
!	!	!LO:LB:g=original	!	!LO:LB:g=original	!	!	!	!	!	!	!	!	!	!	!
=20	=20	=20	=20	=20	=20	=20	=20	=20	=20	=20	=20	=20	=20	=20	=20
4r	.	16cc\LL	.	16ee-\LL	f	2.ryy	.	2.ryy	.	2.ryy	.	16ee-\LL	tu-	.	.
.	.	16b-\	.	16dd\	.	.	.	.	.	.	.	16dd\	.	.	.
.	.	16ee-\	.	16gg\	.	.	.	.	.	.	.	16gg\	.	.	.
.	.	16dd\JJ	.	16ff\JJ	.	.	.	.	.	.	.	16ff\JJ	.	.	.
!	!	!LO:TX:t=P:problem=mixed beam	!	!	!	!	!	!	!	!	!	!LO:LB:g=original	!	!	!
8r	.	8dd\L	.	8ff\L	p	.	.	.	.	.	.	4ff\	-am	.	.
!LO:TX:t=P:problem=mixed beam	!	!LO:SIC:v:s=8g/	!	!	!	!	!	!	!	!	!	!	!	!	!
8E-\L	.	8f/	.	8ee-\	.	.	.	.	.	.	.	.	.	.	.
!	!	!LO:SIC:v:s=8f/	!	!	!	!	!	!	!	!	!	!	!	!	!
8F\	.	8e-/	.	8dd\	.	.	.	.	.	.	.	4r	.	.	.
!	!	!LO:SIC:v:s=8d/J	!	!	!	!	!	!	!	!	!	!	!	!	!
8FF/J	.	8d/J	.	8cc\J	.	.	.	.	.	.	.	.	.	.	.
=21	=21	=21	=21	=21	=21	=21	=21	=21	=21	=21	=21	=21	=21	=21	=21
4BB-/	.	(8d/L	.	(8b-\L	.	2.ryy	.	2.ryy	.	2.ryy	.	8b-\L	Cur	.	.
.	.	8c/)	.	8a\)	.	.	.	.	.	.	.	8a\J	.	.	.
4r	.	(8e-/	.	(8cc\	.	.	.	.	.	.	.	8cc\L	fa-	.	.
.	.	8d/)	.	8b-\)	.	.	.	.	.	.	.	8b-\J	.	.	.
4r	.	(8b-/	.	(8dd\	.	.	.	.	.	.	.	8dd\	-ci-	.	.
.	.	8a/J)	.	8cc\J)	.	.	.	.	.	.	.	8cc\	-em	.	.
=22	=22	=22	=22	=22	=22	=22	=22	=22	=22	=22	=22	=22	=22	=22	=22
4r	.	16cc\LL	.	16ee-\LL	.	2.ryy	.	2.ryy	.	2.ryy	.	16ee-\LL	tu-	.	.
.	.	16b-\	.	16dd\	.	.	.	.	.	.	.	16dd\	.	.	.
.	.	16ee-\	.	16gg\	.	.	.	.	.	.	.	16gg\	.	.	.
.	.	16dd\JJ	.	16ff\JJ	.	.	.	.	.	.	.	16ff\JJ	.	.	.
!	!	!	!	!	!	!	!	!	!	!	!	!LO:LB:g=orignal	!	!	!
8r	.	8dd\L	.	8ff\L	.	.	.	.	.	.	.	4ff\	-am	.	.
8BB-/L	.	8dd\	.	8ff\	.	.	.	.	.	.	.	.	.	.	.
8BB-/	.	8dd\	.	8ff\	.	.	.	.	.	.	.	4r	.	.	.
8BB-/J	.	8dd\J	.	8ff\J	.	.	.	.	.	.	.	.	.	.	.
!LO:LB:g=original	!	!	!	!	!	!	!	!	!	!	!	!	!	!	!
=23	=23	=23	=23	=23	=23	=23	=23	=23	=23	=23	=23	=23	=23	=23	=23
!	!	!	!	!	!	!	!	!	!	!	!	!LO:N:vis=8.	!	!LO:N:vis=00	!LO:N:vis=00
4E-\	.	4ee-\	.	4gg\	.	2.ryy	.	2.ryy	.	2.ryy	.	8r	.	0.r	0.r
.	.	.	.	.	.	.	.	.	.	.	.	16gg\LL	ab-	.	.
.	.	.	.	.	.	.	.	.	.	.	.	16ee-\JJ	.	.	.
4r	.	4r	.	4r	.	.	.	.	.	.	.	16ee-\LL	.	.	.
.	.	.	.	.	.	.	.	.	.	.	.	16dd\	.	.	.
.	.	.	.	.	.	.	.	.	.	.	.	16dd\	.	.	.
.	.	.	.	.	.	.	.	.	.	.	.	16cc\JJ	.	.	.
4r	.	4r	.	4r	.	.	.	.	.	.	.	16cc\LL	.	.	.
.	.	.	.	.	.	.	.	.	.	.	.	16b-\	.	.	.
.	.	.	.	.	.	.	.	.	.	.	.	16b-\	.	.	.
.	.	.	.	.	.	.	.	.	.	.	.	16a\JJ	.	.	.
=24	=24	=24	=24	=24	=24	=24	=24	=24	=24	=24	=24	=24	=24	=24	=24
*	*	*	*	*	*	*	*	*	*	*	*	*Xtuplet	*	*	*
!	!	!	!	!	!	!	!	!	!	!	!	!LO:TUP:a:problem=klamra łukowa, kropka zamiast numeru	!	!	!
!	!	!	!	!	!	!	!	!	!	!	!	!LO:N:vis=24	!	!	!
4BB-/	.	4r	.	4r	.	2.ryy	.	2.ryy	.	2.ryy	.	12b-\L	-son-	.	.
!	!	!	!	!	!	!	!	!	!	!	!	!LO:N:vis=24	!	!	!
.	.	.	.	.	.	.	.	.	.	.	.	12a\	.	.	.
!	!	!	!	!	!	!	!	!	!	!	!	!LO:N:vis=24	!	!	!
.	.	.	.	.	.	.	.	.	.	.	.	12b-\J	.	.	.
8r	.	8r	.	8r	.	.	.	.	.	.	.	4f/	-dis	.	.
8BB-/L	.	8d/L	.	8f/L	p	.	.	.	.	.	.	.	.	.	.
8BB-/	.	8d/	.	8f/	.	.	.	.	.	.	.	8r	.	.	.
8BB-/J	.	8d/J	.	8f/J	.	.	.	.	.	.	.	8f/	et	.	.
=25	=25	=25	=25	=25	=25	=25	=25	=25	=25	=25	=25	=25	=25	=25	=25
4E-\	.	4e-/	.	4g/	.	2.ryy	.	2.ryy	.	2.ryy	.	8.g\	ar-	.	.
.	.	.	.	.	.	.	.	.	.	.	.	16cc\	-bi-	.	.
4E-\	.	4g/	.	4cc\	.	.	.	.	.	.	.	8.cc\	tran-	.	.
.	.	.	.	.	.	.	.	.	.	.	.	16ee-\	-sis	.	.
4E-\	.	4g/	.	4cc\	.	.	.	.	.	.	.	4ee-\	me	.	.
!	!	!LO:LB:g=original	!	!LO:PB:g=original	!	!	!	!	!	!	!	!	!	!	!
=26	=26	=26	=26	=26	=26	=26	=26	=26	=26	=26	=26	=26	=26	=26	=26
4E-\	.	4g/	.	4cc\	.	2.ryy	.	2.ryy	.	2.ryy	.	8.gg\	i-	.	.
.	.	.	.	.	.	.	.	.	.	.	.	16ee-\	-ni-	.	.
4E-\	.	4r	.	4r	.	.	.	.	.	.	.	8.cc\L	-mi-	.	.
.	.	.	.	.	.	.	.	.	.	.	.	16dd\K	.	.	.
4En\	.	4r	.	4r	.	.	.	.	.	.	.	8.cc\	-cum	.	.
.	.	.	.	.	.	.	.	.	.	.	.	16b-\Jk	.	.	.
!	!	!	!	!	!	!	!	!	!	!	!	!LO:LB:g=original	!	!	!
=27	=27	=27	=27	=27	=27	=27	=27	=27	=27	=27	=27	=27	=27	=27	=27
4C/	.	4r	.	4r	.	2.ryy	.	2.ryy	.	2.ryy	.	4b-\	tu-	2.r	2.r
16FF'/LL	.	16r	.	16r	.	.	.	.	.	.	.	4a\	-um	.	.
16FF'/	.	16f/LL	.	16f/LL	.	.	.	.	.	.	.	.	.	.	.
16GG'/	.	16g/	.	16g/	.	.	.	.	.	.	.	.	.	.	.
16AA'/JJ	.	16a/JJ	.	16a/JJ	.	.	.	.	.	.	.	.	.	.	.
16BB-'/LL	.	16b-\LL	.	16b-\LL	.	.	.	.	.	.	.	4r	.	.	.
16C'/	.	16cc\	.	16cc\	.	.	.	.	.	.	.	.	.	.	.
16D'/	.	16dd\	.	16dd\	.	.	.	.	.	.	.	.	.	.	.
16En'/JJ	.	16een\JJ	.	16een\JJ	.	.	.	.	.	.	.	.	.	.	.
=28	=28	=28	=28	=28	=28	=28	=28	=28	=28	=28	=28	=28	=28	=28	=28
4F\	.	4ff\	.	4ff\	.	2.ryy	.	2.ryy	.	2.ryy	.	4r	.	8r	8r
.	.	.	.	.	.	.	.	.	.	.	.	.	.	16f/LL	16f/LL
.	.	.	.	.	.	.	.	.	.	.	.	.	.	16f/JJ	16f/JJ
4FF/	.	4f/	.	4f/	.	.	.	.	.	.	.	4r	.	4f/	4f/
4r	.	4r	.	4r	.	.	.	.	.	.	.	8r	.	4r	4r
.	.	.	.	.	.	.	.	.	.	.	.	16f/	Con-	.	.
.	.	.	.	.	.	.	.	.	.	.	.	16f/	-tra	.	.
=29	=29	=29	=29	=29	=29	=29	=29	=29	=29	=29	=29	=29	=29	=29	=29
!LO:TX:a:t=1	!	!LO:TX:a:t=1	!	!	!	!	!	!	!	!	!	!	!	!	!LO:TX:a:t=1
2.r	.	2.r	.	2.r	.	2.ryy	.	2.ryy	.	2.ryy	.	16a\	fo-	2.r	2.r
.	.	.	.	.	.	.	.	.	.	.	.	16a\	-li-	.	.
.	.	.	.	.	.	.	.	.	.	.	.	8a\	-um	.	.
.	.	.	.	.	.	.	.	.	.	.	.	16r	.	.	.
.	.	.	.	.	.	.	.	.	.	.	.	16a\	qvod	.	.
.	.	.	.	.	.	.	.	.	.	.	.	16cc\	ven-	.	.
.	.	.	.	.	.	.	.	.	.	.	.	16a\	-te	.	.
.	.	.	.	.	.	.	.	.	.	.	.	8g/	ra-	.	.
.	.	.	.	.	.	.	.	.	.	.	.	16f/	-pi-	.	.
.	.	.	.	.	.	.	.	.	.	.	.	16f/	-tur	.	.
=30	=30	=30	=30	=30	=30	=30	=30	=30	=30	=30	=30	=30	=30	=30	=30
4r	.	4r	.	4r	.	2.ryy	.	2.ryy	.	2.ryy	.	16cc\	ra-	4r	4r
.	.	.	.	.	.	.	.	.	.	.	.	16f\	-pi-	.	.
.	.	.	.	.	.	.	.	.	.	.	.	8f\	-tur	.	.
!	!	!LO:TX:t=P:problem=mixed beam	!	!	!LO:DY:rj	!	!	!	!	!	!	!	!	!	!
8C/L	.	8cc\L	.	8cc\L	p	.	.	.	.	.	.	16cc\	ra-	4f/	4f/
.	.	.	.	.	.	.	.	.	.	.	.	16f\	-pi-	.	.
!	!	!	!	!LO:SIC:v:s=8f\J	!	!	!	!	!	!	!	!LO:LB:g=original	!	!	!
8FF/J	.	8f/J	.	8g\J	.	.	.	.	.	.	.	8f\	-tur	.	.
4r	.	4r	.	4r	.	.	.	.	.	.	.	8r	.	4r	4r
.	.	.	.	.	.	.	.	.	.	.	.	16r	.	.	.
.	.	.	.	.	.	.	.	.	.	.	.	16cc\	Os-	.	.
!LO:LB:g=original	!	!	!	!	!	!	!	!	!	!	!	!	!	!	!
=31	=31	=31	=31	=31	=31	=31	=31	=31	=31	=31	=31	=31	=31	=31	=31
!	!	!	!	!	!	!	!	!	!	!	!	!	!	!LO:TX:a:t=13	!
!	!	!LO:SIC:v:s=4d/	!	!	!	!	!	!	!	!	!	!	!	!LO:N:vis=00	!LO:N:vis=00
4BB-/	pp	4e-/	.	4f/	.	2.ryy	.	2.ryy	.	2.ryy	.	8dd\	-ten-	0.r	0.r
.	.	.	.	.	.	.	.	.	.	.	.	16dd\	-de	.	.
.	.	.	.	.	.	.	.	.	.	.	.	16dd\	po-	.	.
4BB-/	.	4c/	.	4en/	.	.	.	.	.	.	.	8een\	-ten-	.	.
.	.	.	.	.	.	.	.	.	.	.	.	16ee\	-ti-	.	.
.	.	.	.	.	.	.	.	.	.	.	.	16ee\	-am	.	.
8r	.	8r	.	8r	.	.	.	.	.	.	.	8r	.	.	.
16r	.	16r	.	8e/	.	.	.	.	.	.	.	16r	.	.	.
16BB-/	.	16c/	.	.	.	.	.	.	.	.	.	16ee\	Os-	.	.
!	!	!	!	!LO:LB:g=original	!	!	!	!	!	!	!	!	!	!	!
=32	=32	=32	=32	=32	=32	=32	=32	=32	=32	=32	=32	=32	=32	=32	=32
8AA/L	.	4c/	.	4f/	.	2.ryy	.	2.ryy	.	2.ryy	.	8ff\	-ten-	.	.
8FF/J	.	.	.	.	.	.	.	.	.	.	.	16ff\	-de	.	.
.	.	.	.	.	.	.	.	.	.	.	.	16ff\	po-	.	.
8En\L	.	4en/	.	4g/	.	.	.	.	.	.	.	16gg\	-ten-	.	.
.	.	.	.	.	.	.	.	.	.	.	.	16gg\	-ti-	.	.
8C\J	.	.	.	.	.	.	.	.	.	.	.	8gg\	-am	.	.
8r	.	4r	.	4r	.	.	.	.	.	.	.	8r	.	.	.
16r	.	.	.	.	.	.	.	.	.	.	.	16r	.	.	.
16C/	.	.	.	.	.	.	.	.	.	.	.	16gg\	po-	.	.
!	!	!LO:LB:g=original	!	!	!	!	!	!	!	!	!	!	!	!	!
=33	=33	=33	=33	=33	=33	=33	=33	=33	=33	=33	=33	=33	=33	=33	=33
!	!	!LO:TX:a:t=1	!	!	!	!	!	!	!	!	!	!	!	!	!
4C\	.	2.r	.	2.r	.	2.ryy	.	2.ryy	.	2.ryy	.	8gg\L	-ten-	.	.
.	.	.	.	.	.	.	.	.	.	.	.	8ff\	.	.	.
4r	.	.	.	.	.	.	.	.	.	.	.	8een\	.	.	.
.	.	.	.	.	.	.	.	.	.	.	.	8dd\J	.	.	.
!	!	!	!	!	!	!	!	!	!	!	!	!LO:LB:g=original	!	!	!
4r	.	.	.	.	.	.	.	.	.	.	.	8cc\	-ti-	.	.
.	.	.	.	.	.	.	.	.	.	.	.	8b-\	-am	.	.
=34	=34	=34	=34	=34	=34	=34	=34	=34	=34	=34	=34	=34	=34	=34	=34
4C/	.	4r	.	4r	.	2.ryy	.	2.ryy	.	2.ryy	.	4b-\	tu-	.	.
16FF|/LL	.	16r	.	16r	.	.	.	.	.	.	.	4a\	-am	.	.
16FF|/	.	16f/LL	.	16f/LL	.	.	.	.	.	.	.	.	.	.	.
16GG|/	.	16g/	.	16g/	.	.	.	.	.	.	.	.	.	.	.
16AA|/JJ	.	16a/JJ	.	16a/JJ	.	.	.	.	.	.	.	.	.	.	.
16BB-|/LL	.	16b-\LL	.	16b-\LL	.	.	.	.	.	.	.	4r	.	.	.
16C|/	.	16cc\	.	16cc\	.	.	.	.	.	.	.	.	.	.	.
16D|/	.	16dd\	.	16dd\	.	.	.	.	.	.	.	.	.	.	.
16En|/JJ	.	16een\JJ	.	16een\JJ	.	.	.	.	.	.	.	.	.	.	.
=35	=35	=35	=35	=35	=35	=35	=35	=35	=35	=35	=35	=35	=35	=35	=35
!LO:TX:t=P:problem=mixed beam	!	!LO:TX:t=P:problem=mixed beam	!	!	!	!	!	!	!	!	!	!	!	!LO:N:vis=00	!LO:N:vis=00
8F\L	.	8ff\L	.	8ff\L	.	2.ryy	.	2.ryy	.	2.ryy	.	8r	.	0.r	0.r
8D\	.	8g/	.	8bn\	.	.	.	.	.	.	.	16ff\	Con-	.	.
.	.	.	.	.	.	.	.	.	.	.	.	16ff\	-tra	.	.
8D\	.	8g/	.	8b\	.	.	.	.	.	.	.	8bn\	fo-	.	.
8D\	.	8g/	.	8b\	.	.	.	.	.	.	.	16b\	-li-	.	.
.	.	.	.	.	.	.	.	.	.	.	.	16b\	-um	.	.
8G\	.	8f/	.	8b\	.	.	.	.	.	.	.	8b\	qvod	.	.
8GG/J	.	8f/J	.	8b\J	.	.	.	.	.	.	.	16b\	ven-	.	.
.	.	.	.	.	.	.	.	.	.	.	.	16b\	-to	.	.
=36	=36	=36	=36	=36	=36	=36	=36	=36	=36	=36	=36	=36	=36	=36	=36
!	!	!	!	!LO:TX:t=P:problem=2\right&colon; global	!	!	!	!	!	!	!	!	!	!	!
2CC;/	.	2en/	.	2cc;\	.	2.ryy	.	2.ryy	.	2.ryy	.	16cc\	ra-	.	.
!	!	!	!	!	!	!	!	!	!	!	!	!LO:SIC:v:s=16bn\	!	!	!
.	.	.	.	.	.	.	.	.	.	.	.	16b-\	-pi-	.	.
.	.	.	.	.	.	.	.	.	.	.	.	8cc\	-tur	.	.
.	.	.	.	.	.	.	.	.	.	.	.	4r;	.	.	.
4r	.	4r	.	4r	.	.	.	.	.	.	.	8r	.	.	.
.	.	.	.	.	.	.	.	.	.	.	.	16r	.	.	.
.	.	.	.	.	.	.	.	.	.	.	.	16cc\	et	.	.
!LO:LB:g=original	!	!	!	!	!	!	!	!	!	!	!	!	!	!	!
=37	=37	=37	=37	=37	=37	=37	=37	=37	=37	=37	=37	=37	=37	=37	=37
*	*	*	*	*	*	*	*	*	*	*	*	*tuplet	*	*	*
*	*	*	*	*	*	*	*	*	*	*	*	*Xbrackettup	*	*	*
!	!	!	!	!	!	!	!	!	!	!	!	!LO:TUP:a:problem=klamra łukowa	!	!	!
4F\	.	8f/L	.	8r	.	2.ryy	.	2.ryy	.	2.ryy	.	12a-X\L	ſti-	.	.
.	.	.	.	.	.	.	.	.	.	.	.	12g\J	.	.	.
.	.	8r	.	8a-X/L	.	.	.	.	.	.	.	.	.	.	.
.	.	.	.	.	.	.	.	.	.	.	.	12f/	-pu-	.	.
!	!	!	!	!	!	!	!	!	!	!	!	!LO:LB:g=original	!	!	!
4F\	.	8f/	.	8r	.	.	.	.	.	.	.	4f/	-lam	.	.
.	.	8r	.	8a-/J	.	.	.	.	.	.	.	.	.	.	.
!	!	!	!	!LO:LB:g=original	!	!	!	!	!	!	!	!	!	!	!
4E-X\	.	8f/J	.	8r	.	.	.	.	.	.	.	8r	.	.	.
.	.	8r	.	8a-/	.	.	.	.	.	.	.	16r	.	.	.
.	.	.	.	.	.	.	.	.	.	.	.	16cc\	et	.	.
=38	=38	=38	=38	=38	=38	=38	=38	=38	=38	=38	=38	=38	=38	=38	=38
!	!	!	!	!	!	!	!	!	!	!	!	!LO:TUP:a:problem=klamra łukowa	!	!	!
4D-X\	.	8f/L	.	8r	.	2.ryy	.	2.ryy	.	2.ryy	.	12a-X\L	ſti-	.	.
.	.	.	.	.	.	.	.	.	.	.	.	12g\J	.	.	.
!	!	!	!	!LO:SIC:v:s=8a-/L	!	!	!	!	!	!	!	!	!	!	!
.	.	8r	.	8a/L	.	.	.	.	.	.	.	.	.	.	.
.	.	.	.	.	.	.	.	.	.	.	.	12f\	-pu-	.	.
4D-\	.	8f/	.	8r	.	.	.	.	.	.	.	4f/	-lam	.	.
!	!	!	!	!LO:SIC:v:s=8a-/	!	!	!	!	!	!	!	!	!	!	!
.	.	8r	.	8a/	.	.	.	.	.	.	.	.	.	.	.
4AA-X/	.	8f/J	.	8r	.	.	.	.	.	.	.	4r	.	.	.
!	!	!	!	!LO:SIC:v:s=8a-/J	!	!	!	!	!	!	!	!	!	!	!
.	.	8r	.	8a/J	.	.	.	.	.	.	.	.	.	.	.
!	!	!LO:LB:g=original	!	!	!	!	!	!	!	!	!	!	!	!	!
=39	=39	=39	=39	=39	=39	=39	=39	=39	=39	=39	=39	=39	=39	=39	=39
!	!	!	!	!	!	!	!	!	!	!	!	!	!	!LO:TX:t=P:problem=1r poprawiona na 00r	!
!	!	!	!	!	!	!	!	!	!	!	!	!	!	!LO:N:vis=00	!LO:N:vis=00
4BB-/	.	8r	.	8r	.	2.ryy	.	2.ryy	.	2.ryy	.	4dd-X\	ſi-	0.r	0.r
.	.	8b-\	.	8dd-X\L	.	.	.	.	.	.	.	.	.	.	.
4C/	.	8cc/L	.	8cc\	.	.	.	.	.	.	.	8cc\L	-ca	.	.
.	.	8b- 8g/	.	8b-\	.	.	.	.	.	.	.	8b-\J	per-	.	.
!	!	!	!	!LO:SIC:v:s=8a-/	!	!	!	!	!	!	!	!	!	!	!
4C/	.	8f/	.	8a\	.	.	.	.	.	.	.	8a-X\	-se-	.	.
!	!	!LO:SIC:v:s=8en/J	!	!	!	!	!	!	!	!	!	!	!	!	!
.	.	8e-/J	.	8g\J	.	.	.	.	.	.	.	8g\	-qve-	.	.
=40	=40	=40	=40	=40	=40	=40	=40	=40	=40	=40	=40	=40	=40	=40	=40
2D-X\	.	2f;</	.	2a-X;/	.	2.ryy	.	2.ryy	.	2.ryy	.	4f/	-ris	.	.
.	.	.	.	.	.	.	.	.	.	.	.	4r	.	.	.
4r	.	4r	.	4r	.	.	.	.	.	.	.	8r	.	.	.
.	.	.	.	.	.	.	.	.	.	.	.	16r	.	.	.
.	.	.	.	.	.	.	.	.	.	.	.	16ff\	et	.	.
=41	=41	=41	=41	=41	=41	=41	=41	=41	=41	=41	=41	=41	=41	=41	=41
4BB-/	.	8r	.	8r	.	2.ryy	.	2.ryy	.	2.ryy	.	8dd\	sti-	.	.
!	!	!	!	!LO:SIC:v:s=8ddn\	!	!	!	!	!	!	!	!	!	!	!
.	.	8b-\	.	8een\	.	.	.	.	.	.	.	16dd\	-pu-	.	.
.	.	.	.	.	.	.	.	.	.	.	.	16dd\	-lam	.	.
8BB-/	.	8b-/L	.	8dd\L	.	.	.	.	.	.	.	8dd\	ſi-	.	.
8r	.	16an/L	.	16cc\L	.	.	.	.	.	.	.	16cc\	-ca	.	.
.	.	16g/JJ	.	16b-\JJ	.	.	.	.	.	.	.	16b-\	per-	.	.
!	!	!	!	!	!	!	!	!	!	!	!	!LO:PB:g=original	!	!	!
!	!	!	!	!	!	!	!	!	!	!	!	!LO:TX:t=P:problem=na początku nowej strony błędnie klucz C4	!	!	!
8C/L	.	8f/L	.	8a/L	.	.	.	.	.	.	.	8an\	-ſe-	.	.
8CC/J	.	8en/J	.	8g/J	.	.	.	.	.	.	.	8g\	-qve-	.	.
=42	=42	=42	=42	=42	=42	=42	=42	=42	=42	=42	=42	=42	=42	=42	=42
4FF/	.	4f/	.	4f/	.	2.ryy	.	2.ryy	.	2.ryy	.	8.f/	-ris	.	.
.	.	.	.	.	.	.	.	.	.	.	.	16cc\	per-	.	.
4r	.	4r	.	4r	.	.	.	.	.	.	.	16a\	-se-	.	.
.	.	.	.	.	.	.	.	.	.	.	.	16g\	-qve-	.	.
.	.	.	.	.	.	.	.	.	.	.	.	8f\	-ris	.	.
4r	.	4r	.	4r	.	.	.	.	.	.	.	4r	.	.	.
!	!	!	!	!LO:LB:g=original	!	!	!	!	!	!	!	!	!	!	!
=43	=43	=43	=43	=43	=43	=43	=43	=43	=43	=43	=43	=43	=43	=43	=43
!	!	!	!	!	!	!	!	!	!	!	!	!LO:N:vis=00	!	!	!
4FF/	.	8A/L	f	(8f/L	f	2.ryy	.	2.ryy	.	2.ryy	.	0.r	.	2.r	2.r
.	.	8G/	.	8en/)	.	.	.	.	.	.	.	.	.	.	.
4r	.	8B-/	.	(8g/	.	.	.	.	.	.	.	.	.	.	.
.	.	8A/	.	8f/)	.	.	.	.	.	.	.	.	.	.	.
4r	.	8f/	.	(8a/	.	.	.	.	.	.	.	.	.	.	.
!	!	!LO:SIC:v:s=8en/J	!	!	!	!	!	!	!	!	!	!	!	!	!
.	.	8e-/J	.	8g/J)	.	.	.	.	.	.	.	.	.	.	.
=44	=44	=44	=44	=44	=44	=44	=44	=44	=44	=44	=44	=44	=44	=44	=44
4r	.	16g/LL	.	(16b-\LL	.	2.ryy	.	2.ryy	.	2.ryy	.	.	.	4r	4r
.	.	16f/	.	16a\)	.	.	.	.	.	.	.	.	.	.	.
.	.	16b-/	.	(16dd\	.	.	.	.	.	.	.	.	.	.	.
.	.	16a/JJ	.	16cc\JJ)	.	.	.	.	.	.	.	.	.	.	.
8r	.	4a/	.	4cc\	.	.	.	.	.	.	.	.	.	8r	8r
!LO:TX:t=P:problem=mixed beam	!	!	!	!	!	!	!	!	!	!	!	!	!	!	!
8F'\L	.	.	.	.	.	.	.	.	.	.	.	.	.	8f/L	8f/L
8C'\	.	4r	.	4r	.	.	.	.	.	.	.	.	.	8f/	8f/
8FF'/J	.	.	.	.	.	.	.	.	.	.	.	.	.	8f/J	8f/J
!LO:PB:g=original	!	!LO:LB:g=original	!	!	!	!	!	!	!	!	!	!	!	!LO:LB:g=original	!
=45	=45	=45	=45	=45	=45	=45	=45	=45	=45	=45	=45	=45	=45	=45	=45
4FF/	.	8A/L	p	(8f/L	p	2.ryy	.	2.ryy	.	2.ryy	.	.	.	4f/	4f/
.	.	8G/	.	8en/)	.	.	.	.	.	.	.	.	.	.	.
4r	.	8B-/	.	(8g/	.	.	.	.	.	.	.	.	.	4r	4r
.	.	8A/	.	8f/)	.	.	.	.	.	.	.	.	.	.	.
4r	.	8f/	.	(8a/	.	.	.	.	.	.	.	.	.	4r	4r
!	!	!LO:SIC:v:s=8en/J	!	!	!	!	!	!	!	!	!	!	!	!	!
.	.	8e-/J	.	8g/J)	.	.	.	.	.	.	.	.	.	.	.
!	!	!	!	!	!	!	!	!	!	!	!	!	!	!	!LO:LB:g=original
=46	=46	=46	=46	=46	=46	=46	=46	=46	=46	=46	=46	=46	=46	=46	=46
4r	.	16g/LL	.	16b-\LL	.	2.ryy	.	2.ryy	.	2.ryy	.	.	.	4r	4r
.	.	16f/	.	16a\	.	.	.	.	.	.	.	.	.	.	.
.	.	16b-/	.	16dd\	.	.	.	.	.	.	.	.	.	.	.
.	.	16a/JJ	.	16cc\JJ	.	.	.	.	.	.	.	.	.	.	.
8r	.	4a/	.	4cc\	.	.	.	.	.	.	.	.	.	8r	8r
8F\	.	.	.	.	.	.	.	.	.	.	.	.	.	8f/	8f/
4FF/	.	4r	.	4r	.	.	.	.	.	.	.	.	.	4f/	4f/
=47	=47	=47	=47	=47	=47	=47	=47	=47	=47	=47	=47	=47	=47	=47	=47
!	!	!	!	!	!	!	!	!	!	!	!	!LO:N:vis=00	!	!	!
4BB-/	.	16dd\LL	.	16dd\LL	.	2.ryy	.	2.ryy	.	2.ryy	.	0.r	.	2.r	2.r
.	.	16b-\	.	16b-\	.	.	.	.	.	.	.	.	.	.	.
.	.	16b-\	.	16b-\	.	.	.	.	.	.	.	.	.	.	.
.	.	16a\JJ	.	16a\JJ	.	.	.	.	.	.	.	.	.	.	.
!	!	!	!	!LO:LB:g=original	!	!	!	!	!	!	!	!	!	!	!
4r	.	16a/LL	.	16a/LL	.	.	.	.	.	.	.	.	.	.	.
.	.	16g/	.	16g/	.	.	.	.	.	.	.	.	.	.	.
.	.	16g/	.	16g/	.	.	.	.	.	.	.	.	.	.	.
.	.	16f/JJ	.	16f/JJ	.	.	.	.	.	.	.	.	.	.	.
4G\	.	16f/LL	.	16f/LL	.	.	.	.	.	.	.	.	.	.	.
!	!	!LO:SIC:v:s=16en/	!	!LO:SIC:v:s=16en/	!	!	!	!	!	!	!	!	!	!	!
.	.	16e-/	.	16e-/	.	.	.	.	.	.	.	.	.	.	.
!	!	!LO:SIC:v:s=16e/	!	!LO:SIC:v:s=16n/	!	!	!	!	!	!	!	!	!	!	!
.	.	16e-/	.	16e-/	.	.	.	.	.	.	.	.	.	.	.
.	.	16d/JJ	.	16d/JJ	.	.	.	.	.	.	.	.	.	.	.
=48	=48	=48	=48	=48	=48	=48	=48	=48	=48	=48	=48	=48	=48	=48	=48
4C/	.	4en/	.	4en/	.	2.ryy	.	2.ryy	.	2.ryy	.	.	.	8r	8r
.	.	.	.	.	.	.	.	.	.	.	.	.	.	8cc\	8cc\
4CC/	.	4c/	.	4c/	.	.	.	.	.	.	.	.	.	4cc\	4cc\
4r	.	4r	.	4r	.	.	.	.	.	.	.	.	.	4r	4r
=49	=49	=49	=49	=49	=49	=49	=49	=49	=49	=49	=49	=49	=49	=49	=49
4BB-/	.	16dd\LL	.	16dd\LL	.	2.ryy	.	2.ryy	.	2.ryy	.	.	.	4b-\	4dd\
.	.	16b-\	.	16b-\	.	.	.	.	.	.	.	.	.	.	.
!	!	!LO:SIC:v:s=16ff\	!	!	!	!	!	!	!	!	!	!	!	!	!
.	.	16ee-\	.	16ff\	.	.	.	.	.	.	.	.	.	.	.
.	.	16dd\JJ	.	16dd\JJ	.	.	.	.	.	.	.	.	.	.	.
4AA/	.	4cc\	.	4cc\	.	.	.	.	.	.	.	.	.	4f\	4cc\
!	!	!LO:PB:g=original	!	!	!	!	!	!	!	!	!	!	!	!	!
4C/	.	16b-\LL	.	16b-\LL	.	.	.	.	.	.	.	.	.	4r	4r
!	!	!LO:SIC:v:s=16g\	!	!	!	!	!	!	!	!	!	!	!	!	!
.	.	16f\	.	16g\	.	.	.	.	.	.	.	.	.	.	.
.	.	16dd\	.	16dd\	.	.	.	.	.	.	.	.	.	.	.
.	.	16b-\JJ	.	16b-\JJ	.	.	.	.	.	.	.	.	.	.	.
=50	=50	=50	=50	=50	=50	=50	=50	=50	=50	=50	=50	=50	=50	=50	=50
4F\	.	4a/	.	4a/	.	2.ryy	.	2.ryy	.	2.ryy	.	.	.	2.r	2.r
4BB-/	.	16g/LL	.	16g/LL	.	.	.	.	.	.	.	.	.	.	.
.	.	16f#X/	.	16f#X/	.	.	.	.	.	.	.	.	.	.	.
.	.	16g/	.	16g/	.	.	.	.	.	.	.	.	.	.	.
.	.	16b-/JJ	.	16b-/JJ	.	.	.	.	.	.	.	.	.	.	.
4C/	.	16b-/LL	.	16b-/LL	.	.	.	.	.	.	.	.	.	.	.
.	.	16a/	.	16a/	.	.	.	.	.	.	.	.	.	.	.
.	.	16a/	.	16a/	.	.	.	.	.	.	.	.	.	.	.
.	.	16g/JJ	.	16g/JJ	.	.	.	.	.	.	.	.	.	.	.
!	!	!	!	!LO:LB:g=original	!	!	!	!	!	!	!	!	!	!	!
=51	=51	=51	=51	=51	=51	=51	=51	=51	=51	=51	=51	=51	=51	=51	=51
!	!	!	!	!	!	!	!	!	!	!	!	!LO:N:vis=0	!	!	!
4FF/	.	16r	.	16r	.	2.ryy	.	2.ryy	.	2.ryy	.	1.r	.	4f/	4f/
.	.	16f/LL	.	16fn/LL	.	.	.	.	.	.	.	.	.	.	.
.	.	16g/	.	16g/	.	.	.	.	.	.	.	.	.	.	.
.	.	16a/JJ	.	16a/JJ	.	.	.	.	.	.	.	.	.	.	.
4r	.	16b-\LL	.	16b-\LL	.	.	.	.	.	.	.	.	.	4r	4r
.	.	16cc\	.	16cc\	.	.	.	.	.	.	.	.	.	.	.
.	.	16dd\	.	16dd\	.	.	.	.	.	.	.	.	.	.	.
.	.	16een\JJ	.	16een\JJ	.	.	.	.	.	.	.	.	.	.	.
4r	.	16ff\LL	.	16ff\LL	.	.	.	.	.	.	.	.	.	4r	4r
.	.	16cc\	.	16cc\	.	.	.	.	.	.	.	.	.	.	.
.	.	16a\	.	16a\	.	.	.	.	.	.	.	.	.	.	.
.	.	16f\JJ	.	16f\JJ	.	.	.	.	.	.	.	.	.	.	.
!LO:LB:g=original	!	!	!	!	!	!	!	!	!	!	!	!	!	!	!
=52	=52	=52	=52	=52	=52	=52	=52	=52	=52	=52	=52	=52	=52	=52	=52
!	!	!	!	!	!	!	!	!	!	!	!	!	!	!LO:TX:a:t=1	!
4BB-/	.	16g/LL	.	16g/LL	.	2.ryy	.	2.ryy	.	2.ryy	.	.	.	2.r	2.r
.	.	16f#X/	.	16f#X/	.	.	.	.	.	.	.	.	.	.	.
.	.	16f#/	.	16f#/	.	.	.	.	.	.	.	.	.	.	.
.	.	16f#/JJ	.	16f#/JJ	.	.	.	.	.	.	.	.	.	.	.
4BB-/	.	16g/LL	.	16g/LL	.	.	.	.	.	.	.	.	.	.	.
.	.	16f#/	.	16f#/	.	.	.	.	.	.	.	.	.	.	.
.	.	16g/	.	16g/	.	.	.	.	.	.	.	.	.	.	.
!	!	!	!	!LO:SIC:v:s=16a/JJ	!	!	!	!	!	!	!	!	!	!	!
.	.	16a/JJ	.	16b-/JJ	.	.	.	.	.	.	.	.	.	.	.
!	!	!LO:LB:g=original	!	!	!	!	!	!	!	!	!	!	!	!	!
4C\	.	16b-/LL	.	16b-/LL	.	.	.	.	.	.	.	.	.	.	.
.	.	16a/	.	16a/	.	.	.	.	.	.	.	.	.	.	.
.	.	16a/	.	16a/	.	.	.	.	.	.	.	.	.	.	.
.	.	16g/JJ	.	16g/JJ	.	.	.	.	.	.	.	.	.	.	.
!	!	!	!	!	!	!	!	!	!	!	!	!	!	!LO:LB:g=original	!
=53	=53	=53	=53	=53	=53	=53	=53	=53	=53	=53	=53	=53	=53	=53	=53
!LO:TX:t=P:problem=mixed beam	!	!	!	!	!	!	!	!	!	!	!	!	!	!	!
8FF/L	.	4f/	.	4f/	.	2.ryy	.	2.ryy	.	2.ryy	.	2.r	.	4f/	4f/
8F|\	.	.	.	.	.	.	.	.	.	.	.	.	.	.	.
8C|\	.	4r	.	4r	.	.	.	.	.	.	.	.	.	4r	4r
8F|\J	.	.	.	.	.	.	.	.	.	.	.	.	.	.	.
8AA|\L	.	4r	.	4r	.	.	.	.	.	.	.	.	.	4r	4r
8C|\J	.	.	.	.	.	.	.	.	.	.	.	.	.	.	.
=54	=54	=54	=54	=54	=54	=54	=54	=54	=54	=54	=54	=54	=54	=54	=54
!	!	!LO:TX:t=P:problem=mixed beam	!	!	!	!	!	!	!	!	!	!	!	!LO:N:vis=00	!LO:N:vis=00
4FF|/	.	8a/L	.	8ff\L	p	2.ryy	.	2.ryy	.	2.ryy	.	8f/L	ſcri-	0.r	0.r
.	.	8g/	.	8een\	.	.	.	.	.	.	.	8en/	.	.	.
4r	.	8b-/	.	8gg\	.	.	.	.	.	.	.	8g/	.	.	.
.	.	8a/	.	8ff\J	.	.	.	.	.	.	.	8f/J	.	.	.
!	!	!	!	!LO:LB:g=original	!	!	!	!	!	!	!	!	!	!	!
4r	.	(8ff\	.	(8aa\L	.	.	.	.	.	.	.	8a\L	-bis	.	.
.	.	8een\J)	.	8gg\J)	.	.	.	.	.	.	.	8g\J	.	.	.
=55	=55	=55	=55	=55	=55	=55	=55	=55	=55	=55	=55	=55	=55	=55	=55
4r	.	16gg\LL	.	16bb-\LL	.	2.ryy	.	2.ryy	.	2.ryy	.	16b-\LL	e-	.	.
.	.	16ff\	.	16aa\	.	.	.	.	.	.	.	16a\	.	.	.
.	.	16bb-\	.	16ddd\	.	.	.	.	.	.	.	16dd\	.	.	.
.	.	16aa\JJ	.	16ccc\JJ	.	.	.	.	.	.	.	16cc\JJ	.	.	.
8r	.	4aa\	.	8ccc\L	.	.	.	.	.	.	.	4cc\	-nim	.	.
8B-\	.	.	.	8bb-\	.	.	.	.	.	.	.	.	.	.	.
!LO:TX:t=P:problem=mixed beam	!	!	!	!	!	!	!	!	!	!	!	!	!	!	!
8c\L	.	4r	.	8aa\	.	.	.	.	.	.	.	4r	.	.	.
8C/J	.	.	.	8gg\J	.	.	.	.	.	.	.	.	.	.	.
!	!	!	!	!	!	!	!	!	!	!	!	!LO:LB:g=original	!	!	!
=56	=56	=56	=56	=56	=56	=56	=56	=56	=56	=56	=56	=56	=56	=56	=56
!	!	!LO:TX:t=P:problem=mixed beam	!	!	!	!	!	!	!	!	!	!	!	!	!
4FF/	.	8a/L	.	8ff\L	.	2.ryy	.	2.ryy	.	2.ryy	.	8f/L	ſcri-	.	.
!	!	!	!	!	!	!	!	!	!	!	!	!LO:SIC:v:s=8en/	!	!	!
.	.	8g/	.	8een\	.	.	.	.	.	.	.	8e-/	.	.	.
4r	.	8b-/	.	8gg\	.	.	.	.	.	.	.	8g/	.	.	.
.	.	8a/	.	8ff\	.	.	.	.	.	.	.	8f/J	.	.	.
4r	.	8ff\	.	8aa\	.	.	.	.	.	.	.	8a\L	-bis	.	.
.	.	8een\J	.	8gg\J	.	.	.	.	.	.	.	8g\J	.	.	.
=57	=57	=57	=57	=57	=57	=57	=57	=57	=57	=57	=57	=57	=57	=57	=57
4r	.	16gg\LL	.	16bb-\LL	.	2.ryy	.	2.ryy	.	2.ryy	.	16b-\LL	Con-	.	.
.	.	16ff\	.	16aa\	.	.	.	.	.	.	.	16a\JJ	.	.	.
.	.	16bb-\	.	16ddd\	.	.	.	.	.	.	.	16dd\LL	-tra	.	.
.	.	16aa\JJ	.	16ccc\JJ	.	.	.	.	.	.	.	16cc\JJ	.	.	.
!	!	!LO:LB:g=original	!	!	!	!	!	!	!	!	!	!	!	!	!
8r	.	4aa\	.	4ccc\	.	.	.	.	.	.	.	4cc\	me	.	.
8F\	.	.	.	.	.	.	.	.	.	.	.	.	.	.	.
4FF/	.	4r	.	4r	.	.	.	.	.	.	.	8r	.	.	.
.	.	.	.	.	.	.	.	.	.	.	.	16r	.	.	.
.	.	.	.	.	.	.	.	.	.	.	.	16cc\	a-	.	.
=58	=58	=58	=58	=58	=58	=58	=58	=58	=58	=58	=58	=58	=58	=58	=58
!	!	!LO:TX:a:t=1	!	!	!	!	!	!	!	!	!	!	!	!LO:N:vis=00	!LO:N:vis=00
4r	.	2.r	.	2.r	.	2.ryy	.	2.ryy	.	2.ryy	.	16cc\LL	-ma-	0.r	0.r
.	.	.	.	.	.	.	.	.	.	.	.	16dd\	.	.	.
.	.	.	.	.	.	.	.	.	.	.	.	16dd\	.	.	.
.	.	.	.	.	.	.	.	.	.	.	.	16b-\JJ	.	.	.
4r	.	.	.	.	.	.	.	.	.	.	.	16b-\LL	-ri-	.	.
.	.	.	.	.	.	.	.	.	.	.	.	16a\	.	.	.
.	.	.	.	.	.	.	.	.	.	.	.	16a\	.	.	.
.	.	.	.	.	.	.	.	.	.	.	.	16g\JJ	.	.	.
8r	.	.	.	.	.	.	.	.	.	.	.	16g/LL	-tu-	.	.
.	.	.	.	.	.	.	.	.	.	.	.	16f/JJ	.	.	.
8C/	.	.	.	.	.	.	.	.	.	.	.	16f/LL	-di-	.	.
!	!	!	!	!	!	!	!	!	!	!	!	!LO:N:acc=#	!	!	!
.	.	.	.	.	.	.	.	.	.	.	.	16enX/JJ	.	.	.
!LO:LB:g=original	!	!	!	!	!	!	!	!	!	!	!	!	!	!	!
=59	=59	=59	=59	=59	=59	=59	=59	=59	=59	=59	=59	=59	=59	=59	=59
4FF/	.	8r	.	8r	.	2.ryy	.	2.ryy	.	2.ryy	.	4f/	-nem	.	.
.	.	8B-/L	.	8d/L	.	.	.	.	.	.	.	.	.	.	.
4r	.	8c/	.	8e-/	.	.	.	.	.	.	.	4r	.	.	.
.	.	8d/	.	8f/	.	.	.	.	.	.	.	.	.	.	.
4FF/	.	8e-/	.	8g/	.	.	.	.	.	.	.	4r	.	.	.
.	.	8c/J	.	8a/J	.	.	.	.	.	.	.	.	.	.	.
!	!	!	!	!LO:LB:g=original	!	!	!	!	!	!	!	!	!	!	!
=60	=60	=60	=60	=60	=60	=60	=60	=60	=60	=60	=60	=60	=60	=60	=60
4BB-/	.	(8d/L	.	(8b-\L	.	2.ryy	.	2.ryy	.	2.ryy	.	8b-\L	ſcri-	.	.
.	.	8c/)	.	8an\)	.	.	.	.	.	.	.	8a\	.	.	.
4r	.	(8e-/	.	(8cc\	.	.	.	.	.	.	.	8cc\	.	.	.
.	.	8d/)	.	8b-\)	.	.	.	.	.	.	.	8b-\J	.	.	.
!	!	!	!	!	!	!	!	!	!	!	!	!LO:LB:g=original	!	!	!
4r	.	(8b-/	.	(8dd\	.	.	.	.	.	.	.	8dd\L	-bis	.	.
.	.	8a/J)	.	8cc\J)	.	.	.	.	.	.	.	8cc\J	.	.	.
=61	=61	=61	=61	=61	=61	=61	=61	=61	=61	=61	=61	=61	=61	=61	=61
4r	.	16cc\LL	.	(16ee-\LL	.	2.ryy	.	2.ryy	.	2.ryy	.	(16ee-\LL	e-	.	.
.	.	16b-\	.	16dd\)	.	.	.	.	.	.	.	16dd\	.	.	.
!	!	!LO:SIC:v:s=16ee-\	!	!	!	!	!	!	!	!	!	!	!	!	!
.	.	16dd\	.	(16gg\	.	.	.	.	.	.	.	16gg\)	.	.	.
!	!	!LO:SIC:v:s=16dd\JJ	!	!	!	!	!	!	!	!	!	!	!	!	!
.	.	16cc\JJ	.	16ff\JJ)	.	.	.	.	.	.	.	16ff\JJ	.	.	.
!	!	!LO:TX:t=P:problem=mixed beam	!	!	!	!	!	!	!	!	!	!	!	!	!
8r	.	8dd\L	.	8ff\L	.	.	.	.	.	.	.	4ff\	-nim	.	.
8E-\	.	8g/	.	8ee-\	.	.	.	.	.	.	.	.	.	.	.
!LO:TX:t=P:problem=mixed beam	!	!	!	!	!	!	!	!	!	!	!	!	!	!	!
8F\L	.	8f/	.	8dd\	.	.	.	.	.	.	.	4r	.	.	.
8FF/J	.	8e-/J	.	8cc\J	.	.	.	.	.	.	.	.	.	.	.
=62	=62	=62	=62	=62	=62	=62	=62	=62	=62	=62	=62	=62	=62	=62	=62
!	!	!	!	!	!	!	!	!	!	!	!	!	!	!	!LO:TX:t=P:problem=00r poprawiona na 0r
!	!	!	!	!	!	!	!	!	!	!	!	!	!	!LO:N:vis=0	!LO:N:vis=0
4BB-/	.	(8d/L	.	(8b-\L	.	2.ryy	.	2.ryy	.	2.ryy	.	8b-\L	ſcri-	1.r	1.r
.	.	8c/)	.	8an\)	.	.	.	.	.	.	.	8a\	.	.	.
4r	.	(8e-/	.	(8cc\	.	.	.	.	.	.	.	8cc\	.	.	.
.	.	8d/)	.	8b-\)	.	.	.	.	.	.	.	8b-\J	.	.	.
4r	.	(8b-/	.	(8dd\	.	.	.	.	.	.	.	8dd\L	-bis	.	.
.	.	8a/J)	.	8cc\J)	.	.	.	.	.	.	.	8cc\J	.	.	.
!	!	!LO:LB:g=original	!	!	!	!	!	!	!	!	!	!	!	!	!
=63	=63	=63	=63	=63	=63	=63	=63	=63	=63	=63	=63	=63	=63	=63	=63
!	!	!	!	!	!	!	!	!	!	!	!	!	!	!	!
4r	.	16cc\LL	.	(16ee-\LL	.	2.ryy	.	2.ryy	.	2.ryy	.	16ee-\LL	Con-	.	.
.	.	16b-\	.	16dd\	.	.	.	.	.	.	.	16dd\JJ	.	.	.
.	.	16ee-\	.	16gg\)	.	.	.	.	.	.	.	16gg\LL	-tra	.	.
.	.	16dd\JJ	.	16ff\JJ	.	.	.	.	.	.	.	16ff\JJ	.	.	.
8r	.	4dd\	.	4ff\	.	.	.	.	.	.	.	4ff\	me	.	.
8B-\	.	.	.	.	.	.	.	.	.	.	.	.	.	.	.
4BB-/	.	4r	.	4r	.	.	.	.	.	.	.	8r	.	.	.
.	.	.	.	.	.	.	.	.	.	.	.	16r	.	.	.
.	.	.	.	.	.	.	.	.	.	.	.	16ff\	a-	.	.
=64	=64	=64	=64	=64	=64	=64	=64	=64	=64	=64	=64	=64	=64	=64	=64
!	!	!LO:TX:a:t=1	!	!	!	!	!	!	!	!	!	!	!	!	!
4r	.	2.r	.	2.r	.	2.ryy	.	2.ryy	.	2.ryy	.	16ff\LL	-ma-	2.r	2.r
.	.	.	.	.	.	.	.	.	.	.	.	16gg\	.	.	.
.	.	.	.	.	.	.	.	.	.	.	.	16gg\	.	.	.
.	.	.	.	.	.	.	.	.	.	.	.	16ee-\JJ	.	.	.
4r	.	.	.	.	.	.	.	.	.	.	.	16ee-\LL	.	.	.
.	.	.	.	.	.	.	.	.	.	.	.	16dd\JJ	.	.	.
.	.	.	.	.	.	.	.	.	.	.	.	16dd\LL	-ri-	.	.
.	.	.	.	.	.	.	.	.	.	.	.	16cc\JJ	.	.	.
8r	.	.	.	.	.	.	.	.	.	.	.	16cc\LL	-tu-	.	.
.	.	.	.	.	.	.	.	.	.	.	.	16b-\JJ	.	.	.
8F\	.	.	.	.	.	.	.	.	.	.	.	16b-\LL	-di-	.	.
.	.	.	.	.	.	.	.	.	.	.	.	16a\JJ	.	.	.
!	!	!	!	!LO:LB:g=original	!	!	!	!	!	!	!	!LO:LB:g=original	!	!	!LO:LB:g=original
=65	=65	=65	=65	=65	=65	=65	=65	=65	=65	=65	=65	=65	=65	=65	=65
!	!	!	!	!	!	!	!	!	!	!	!	!	!LO:MO:mod=-nem	!	!
4B-\	.	8r	.	8r	.	2.ryy	.	2.ryy	.	2.ryy	.	4b-\	-mem	8r	8r
.	.	8b-\	.	8b-\	.	.	.	.	.	.	.	.	.	16B-/LL	16B-/LL
.	.	.	.	.	.	.	.	.	.	.	.	.	.	16B-/JJ	16B-/JJ
4BB-/	.	4B-/	.	4B-/	.	.	.	.	.	.	.	4r	.	4B-/	4B-/
!	!	!	!	!	!	!	!	!	!	!	!	!LO:TUP:a:problem=klamra łukowa	!	!	!
4r	.	4r	.	4r	.	.	.	.	.	.	.	12ff\L	et	4r	4r
.	.	.	.	.	.	.	.	.	.	.	.	12dd\J	.	.	.
.	.	.	.	.	.	.	.	.	.	.	.	12b-\	Con-	.	.
!LO:LB:g=original	!	!	!	!	!	!	!	!	!	!	!	!	!	!	!
=66	=66	=66	=66	=66	=66	=66	=66	=66	=66	=66	=66	=66	=66	=66	=66
!	!	!	!	!	!	!	!	!	!	!	!	!	!	!LO:N:vis=00	!LO:N:vis=00
16r	.	16r	.	16r	.	2.ryy	.	2.ryy	.	2.ryy	.	8b-\	-su-	0.r	0.r
16D\LL	.	16f/LL	.	16a-X/LL	.	.	.	.	.	.	.	.	.	.	.
16D\	.	16f/	.	16a-/	.	.	.	.	.	.	.	16b-\	-me-	.	.
16D\JJ	.	16f/JJ	.	16a-/JJ	.	.	.	.	.	.	.	16b-\	-re	.	.
16D\LL	.	16f/LL	.	16a-/LL	.	.	.	.	.	.	.	4b-\	me	.	.
16D\	.	16f/	.	16a-/	.	.	.	.	.	.	.	.	.	.	.
16D\	.	16f/	.	16a-/	.	.	.	.	.	.	.	.	.	.	.
16D\JJ	.	16f/JJ	.	16a-/JJ	.	.	.	.	.	.	.	.	.	.	.
4D\	.	4f/	.	4a-/	.	.	.	.	.	.	.	16r	.	.	.
.	.	.	.	.	.	.	.	.	.	.	.	16ff\LL	pec-	.	.
.	.	.	.	.	.	.	.	.	.	.	.	16dd\	.	.	.
.	.	.	.	.	.	.	.	.	.	.	.	16cc\JJ	.	.	.
=67	=67	=67	=67	=67	=67	=67	=67	=67	=67	=67	=67	=67	=67	=67	=67
!	!	!	!	!LO:N:vis=16	!	!	!	!	!	!	!	!	!	!	!
8r	.	8r	.	8r	.	2.ryy	.	2.ryy	.	2.ryy	.	8b-\	-ca-	.	.
!	!	!	!	!LO:TX:t=P:problem=wydrapana jedna, błędna belka	!	!	!	!	!	!	!	!	!	!	!
8D/L	.	8f/L	.	8a-X/L	.	.	.	.	.	.	.	8b-\	-tis	.	.
8D/	.	8f/	.	8a-/	.	.	.	.	.	.	.	8b-\	a-	.	.
8D/	.	8f/	.	8a-/J	.	.	.	.	.	.	.	16b-\	-do-	.	.
.	.	.	.	.	.	.	.	.	.	.	.	16b-\	-les-	.	.
8BB-/	.	8f/	.	16b-/LL	.	.	.	.	.	.	.	16b-\LL	-cen-	.	.
.	.	.	.	16a-/	.	.	.	.	.	.	.	16a-X\JJ	.	.	.
8BB-/J	.	8d/J	.	16g/	.	.	.	.	.	.	.	16g\	-ti-	.	.
.	.	.	.	16a-/JJ	.	.	.	.	.	.	.	16a-X\	-ae	.	.
=68	=68	=68	=68	=68	=68	=68	=68	=68	=68	=68	=68	=68	=68	=68	=68
4BB-/	.	4d/	.	4a-X/	.	2.ryy	.	2.ryy	.	2.ryy	.	4a\	me-	.	.
4EE-/	.	4e-/	.	4g/	.	.	.	.	.	.	.	8g\	-ae	.	.
.	.	.	.	.	.	.	.	.	.	.	.	8r	.	.	.
4r	.	4r	.	4r	.	.	.	.	.	.	.	16gg\LL	et	.	.
.	.	.	.	.	.	.	.	.	.	.	.	16ee-X\JJ	.	.	.
!	!	!	!	!	!	!	!	!	!	!	!	!LO:LB:g=original	!	!	!
.	.	.	.	.	.	.	.	.	.	.	.	8dd\	Con-	.	.
!	!	!LO:LB:g=original	!	!LO:LB:g=original	!	!	!	!	!	!	!	!	!	!	!
=69	=69	=69	=69	=69	=69	=69	=69	=69	=69	=69	=69	=69	=69	=69	=69
16r	.	16r	.	16r	.	2.ryy	.	2.ryy	.	2.ryy	.	8cc\	-ſu-	.	.
16En\LL	.	16g/LL	.	16b-/LL	.	.	.	.	.	.	.	.	.	.	.
16E\	.	16g/	.	16b-/	.	.	.	.	.	.	.	16cc\	-me-	.	.
16E\JJ	.	16g/JJ	.	16b-/JJ	.	.	.	.	.	.	.	16cc\	-re	.	.
16E\LL	.	16g/LL	.	16b-/LL	.	.	.	.	.	.	.	4cc\	me	.	.
16E\	.	16g/	.	16b-/	.	.	.	.	.	.	.	.	.	.	.
16E\	.	16g/	.	16b-/	.	.	.	.	.	.	.	.	.	.	.
16E\JJ	.	16g/JJ	.	16b-/JJ	.	.	.	.	.	.	.	.	.	.	.
4E\	.	4g/	.	4b-\	.	.	.	.	.	.	.	16r	.	.	.
.	.	.	.	.	.	.	.	.	.	.	.	16gg\LL	pec-	.	.
.	.	.	.	.	.	.	.	.	.	.	.	16een\	.	.	.
.	.	.	.	.	.	.	.	.	.	.	.	16dd\JJ	.	.	.
=70	=70	=70	=70	=70	=70	=70	=70	=70	=70	=70	=70	=70	=70	=70	=70
!	!	!	!	!	!	!	!	!	!	!	!	!	!	!LO:N:vis=0	!LO:N:vis=0
8r	.	8r	.	8r	.	2.ryy	.	2.ryy	.	2.ryy	.	8cc\	-ca-	1.r	1.r
8En\L	.	8g/L	.	8b-/L	.	.	.	.	.	.	.	8cc\	-tis	.	.
8E\	.	8g/	.	8b-/	.	.	.	.	.	.	.	8cc\	a-	.	.
8E\J	.	8g/	.	8b-/J	.	.	.	.	.	.	.	16cc\	-do-	.	.
.	.	.	.	.	.	.	.	.	.	.	.	16cc\	-les-	.	.
!LO:LB:g=original	!	!	!	!	!	!	!	!	!	!	!	!	!	!	!
!LO:TX:t=P:problem=usunięta kreska taktowa	!	!	!	!	!	!	!	!	!	!	!	!	!	!	!
8C/L	.	8en/	.	16cc\LL	.	.	.	.	.	.	.	16cc\LL	-cen-	.	.
.	.	.	.	16b-\	.	.	.	.	.	.	.	16b-\JJ	.	.	.
8C/J	.	8c/J	.	16an\	.	.	.	.	.	.	.	16an\	-ti-	.	.
.	.	.	.	16b-\JJ	.	.	.	.	.	.	.	16b-\	-ae	.	.
=71	=71	=71	=71	=71	=71	=71	=71	=71	=71	=71	=71	=71	=71	=71	=71
4C/	.	4c/	.	4b-/	.	2.ryy	.	2.ryy	.	2.ryy	.	4b-\	me-	.	.
16FF|/LL	.	16f/LL	.	16a/LL	.	.	.	.	.	.	.	4a\	-ae	.	.
16FF|/	.	16f/	.	16f/	.	.	.	.	.	.	.	.	.	.	.
16GG|/	.	16g/	.	16g/	.	.	.	.	.	.	.	.	.	.	.
16AA|/JJ	.	16an/JJ	.	16a/JJ	.	.	.	.	.	.	.	.	.	.	.
16BB-|/LL	.	16b-\LL	.	16b-\LL	.	.	.	.	.	.	.	4r	.	.	.
16C|/	.	16cc\	.	16cc\	.	.	.	.	.	.	.	.	.	.	.
16D|/	.	16dd\	.	16dd\	.	.	.	.	.	.	.	.	.	.	.
16En|/JJ	.	16een\JJ	.	16een\JJ	.	.	.	.	.	.	.	.	.	.	.
=72	=72	=72	=72	=72	=72	=72	=72	=72	=72	=72	=72	=72	=72	=72	=72
4F\	.	4ff\	.	4ff\	.	2.ryy	.	2.ryy	.	2.ryy	.	4r	.	8r	8r
.	.	.	.	.	.	.	.	.	.	.	.	.	.	16f/LL	16f/LL
.	.	.	.	.	.	.	.	.	.	.	.	.	.	16f/JJ	16f/JJ
4FF/	.	4f/	.	4f/	.	.	.	.	.	.	.	4r	.	4f/	4f/
!	!	!	!	!	!	!	!	!	!	!	!	!LO:LB:g=original	!	!	!
4r	.	4r	.	4r	.	.	.	.	.	.	.	8r	.	4r	4r
.	.	.	.	.	.	.	.	.	.	.	.	16f/	Con-	.	.
.	.	.	.	.	.	.	.	.	.	.	.	16f/	-tra	.	.
!	!	!	!	!LO:LB:g=original	!	!	!	!	!	!	!	!	!	!	!
=73	=73	=73	=73	=73	=73	=73	=73	=73	=73	=73	=73	=73	=73	=73	=73
!	!	!	!	!	!	!	!	!	!	!	!	!	!	!LO:TX:a:t=1	!
2.r	.	2.r	.	2.r	.	2.ryy	.	2.ryy	.	2.ryy	.	16a\	fo-	2.r	2.r
.	.	.	.	.	.	.	.	.	.	.	.	16a\	-li-	.	.
.	.	.	.	.	.	.	.	.	.	.	.	8a\	-um	.	.
.	.	.	.	.	.	.	.	.	.	.	.	16r	.	.	.
.	.	.	.	.	.	.	.	.	.	.	.	16a\	qvod	.	.
.	.	.	.	.	.	.	.	.	.	.	.	16cc\	ven-	.	.
.	.	.	.	.	.	.	.	.	.	.	.	16a\	-to	.	.
.	.	.	.	.	.	.	.	.	.	.	.	8g\	ra-	.	.
.	.	.	.	.	.	.	.	.	.	.	.	16f/	-pi-	.	.
.	.	.	.	.	.	.	.	.	.	.	.	16f/	-tur	.	.
!	!	!LO:LB:g=original	!	!	!	!	!	!	!	!	!	!	!	!	!
=74	=74	=74	=74	=74	=74	=74	=74	=74	=74	=74	=74	=74	=74	=74	=74
4r	.	4r	.	4r	.	2.ryy	.	2.ryy	.	2.ryy	.	8cc\	ra-	4f/	4f/
.	.	.	.	.	.	.	.	.	.	.	.	16f/	-pi-	.	.
.	.	.	.	.	.	.	.	.	.	.	.	16f/	-tur	.	.
!	!	!LO:TX:t=P:problem=mixed beam	!	!	!	!	!	!	!	!	!	!	!	!	!
8C/L	.	8cc\L	.	8cc\L	.	.	.	.	.	.	.	8cc\	ra-	4r	4r
!	!	!LO:SIC:v:s=8f/J	!	!	!	!	!	!	!	!	!	!	!	!	!
8FF/J	.	8g/J	.	8f\J	.	.	.	.	.	.	.	16f/	-pi-	.	.
.	.	.	.	.	.	.	.	.	.	.	.	16f/	-tur	.	.
4r	.	4r	.	4r	.	.	.	.	.	.	.	8r	.	4r	4r
.	.	.	.	.	.	.	.	.	.	.	.	16r	.	.	.
.	.	.	.	.	.	.	.	.	.	.	.	16f/	Os-	.	.
!	!	!	!	!	!	!	!	!	!	!	!	!LO:LB:g=original	!	!	!
=75	=75	=75	=75	=75	=75	=75	=75	=75	=75	=75	=75	=75	=75	=75	=75
!	!	!	!	!	!	!	!	!	!	!	!	!	!	!LO:N:vis=00	!LO:N:vis=00
4E-\	.	4g/	.	4g/	.	2.ryy	.	2.ryy	.	2.ryy	.	8g\	-ten-	0.r	0.r
.	.	.	.	.	.	.	.	.	.	.	.	16g\	-des	.	.
.	.	.	.	.	.	.	.	.	.	.	.	16g\	po-	.	.
4E-\	.	4f/	.	4f/	.	.	.	.	.	.	.	16a\	-ten-	.	.
.	.	.	.	.	.	.	.	.	.	.	.	16a\	-ti-	.	.
.	.	.	.	.	.	.	.	.	.	.	.	8a\	-am	.	.
8r	.	4r	.	8r	.	.	.	.	.	.	.	8r	.	.	.
16r	.	.	.	16r	.	.	.	.	.	.	.	16r	.	.	.
16E-\	.	.	.	16f/	.	.	.	.	.	.	.	16a\	Os-	.	.
=76	=76	=76	=76	=76	=76	=76	=76	=76	=76	=76	=76	=76	=76	=76	=76
8D/L	.	4f/	.	4b-\	.	2.ryy	.	2.ryy	.	2.ryy	.	8b-\	-ten-	.	.
8BB-/	.	.	.	.	.	.	.	.	.	.	.	16b-\	-des	.	.
.	.	.	.	.	.	.	.	.	.	.	.	16b-\	po-	.	.
8AA/	.	4a/	.	4cc\	.	.	.	.	.	.	.	16cc\	-ten-	.	.
.	.	.	.	.	.	.	.	.	.	.	.	16cc\	-ti-	.	.
8FF/J	.	.	.	.	.	.	.	.	.	.	.	8cc\	-am	.	.
8r	.	4r	.	4r	.	.	.	.	.	.	.	8r	.	.	.
16r	.	.	.	.	.	.	.	.	.	.	.	16r	.	.	.
!LO:LB:g=original	!	!	!	!	!	!	!	!	!	!	!	!	!	!	!
16F\	.	.	.	.	.	.	.	.	.	.	.	16cc\	po-	.	.
=77	=77	=77	=77	=77	=77	=77	=77	=77	=77	=77	=77	=77	=77	=77	=77
!	!	!LO:TX:a:t=1	!	!LO:TX:a:t=1	!	!	!	!	!	!	!	!	!	!	!
4FF/	.	2.r	.	2.r	.	2.ryy	.	2.ryy	.	2.ryy	.	8cc\L	-ten-	.	.
.	.	.	.	.	.	.	.	.	.	.	.	8b-\	.	.	.
4r	.	.	.	.	.	.	.	.	.	.	.	8a\	.	.	.
.	.	.	.	.	.	.	.	.	.	.	.	8g\J	.	.	.
4r	.	.	.	.	.	.	.	.	.	.	.	8f/	-ti-	.	.
.	.	.	.	.	.	.	.	.	.	.	.	8e-/	-am	.	.
=78	=78	=78	=78	=78	=78	=78	=78	=78	=78	=78	=78	=78	=78	=78	=78
4FF/	.	4r	.	4r	.	2.ryy	.	2.ryy	.	2.ryy	.	4e-/	tu-	.	.
16BB-|/LL	.	16r	.	16r	.	.	.	.	.	.	.	4d/	-a	.	.
16BB-|/	.	16b-\LL	.	16b-\LL	.	.	.	.	.	.	.	.	.	.	.
16C|/	.	16cc\	.	16cc\	.	.	.	.	.	.	.	.	.	.	.
16D|/JJ	.	16dd\JJ	.	16dd\JJ	.	.	.	.	.	.	.	.	.	.	.
16E-|\LL	.	16ee-\LL	.	16ee-\LL	.	.	.	.	.	.	.	4r	.	.	.
16F|\	.	16ff\	.	16ff\	.	.	.	.	.	.	.	.	.	.	.
16G|\	.	16gg\	.	16gg\	.	.	.	.	.	.	.	.	.	.	.
16A|\JJ	.	16aa\JJ	.	16aa\JJ	.	.	.	.	.	.	.	.	.	.	.
!	!	!	!	!	!	!	!	!	!	!	!	!LO:LB:g=original	!	!	!
=79	=79	=79	=79	=79	=79	=79	=79	=79	=79	=79	=79	=79	=79	=79	=79
!LO:TX:t=P:problem=mixed beam	!	!	!	!	!	!	!	!	!	!	!	!	!	!LO:N:vis=00	!LO:N:vis=00
8B-\L	.	8bb-\L	.	8bb-\L	.	2.ryy	.	2.ryy	.	2.ryy	.	8r	.	0.r	0.r
8G\	.	8cc\	.	8een\	.	.	.	.	.	.	.	16b-\	Con-	.	.
.	.	.	.	.	.	.	.	.	.	.	.	16b-\	-tra	.	.
8G\	.	8cc\	.	8ee\	.	.	.	.	.	.	.	8een\	fo-	.	.
8G\	.	8cc\	.	8ee\	.	.	.	.	.	.	.	16ee\	-li-	.	.
.	.	.	.	.	.	.	.	.	.	.	.	16ee\	-um	.	.
8c\	.	8b-\	.	8ee\	.	.	.	.	.	.	.	8ee\	qvod	.	.
8C/J	.	8b-\J	.	8ee\J	.	.	.	.	.	.	.	16ee\	ven-	.	.
.	.	.	.	.	.	.	.	.	.	.	.	16ee\	-te	.	.
!	!	!LO:LB:g=original	!	!LO:LB:g=original	!	!	!	!	!	!	!	!	!	!	!
=80	=80	=80	=80	=80	=80	=80	=80	=80	=80	=80	=80	=80	=80	=80	=80
!	!	!	!	!LO:SIC:v:s=8qqeen/	!	!	!	!	!	!	!	!	!	!	!
.	.	.	.	8qqee-/	.	.	.	.	.	.	.	.	.	.	.
2FF;/	.	2a;</	.	2ff;\	.	2.ryy	.	2.ryy	.	2.ryy	.	16ff\	ra-	.	.
.	.	.	.	.	.	.	.	.	.	.	.	16een\	-pi-	.	.
.	.	.	.	.	.	.	.	.	.	.	.	8ff;\	-tur	.	.
!	!	!	!	!	!	!	!	!	!	!	!	!LO:N:vis=8	!	!	!
.	.	.	.	.	.	.	.	.	.	.	.	4r	.	.	.
4r	.	4r	.	4r	.	.	.	.	.	.	.	8r	.	.	.
.	.	.	.	.	.	.	.	.	.	.	.	16r	.	.	.
.	.	.	.	.	.	.	.	.	.	.	.	16ff\	et	.	.
=81	=81	=81	=81	=81	=81	=81	=81	=81	=81	=81	=81	=81	=81	=81	=81
!	!	!	!	!	!	!	!	!	!	!	!	!LO:TUP:a:problem=klamra łukowa	!	!	!
4B-\	.	8b-/L	.	8r	.	2.ryy	.	2.ryy	.	2.ryy	.	12dd-X\L	ſti-	.	.
.	.	.	.	.	.	.	.	.	.	.	.	12cc\J	.	.	.
.	.	8r	.	8dd-X\L	.	.	.	.	.	.	.	.	.	.	.
.	.	.	.	.	.	.	.	.	.	.	.	12b-\	-pu-	.	.
4B-\	.	8b-/	.	8r	.	.	.	.	.	.	.	4b-\	-lam	.	.
.	.	8r	.	8dd-\	.	.	.	.	.	.	.	.	.	.	.
4A-X\	.	8b-/J	.	8r	.	.	.	.	.	.	.	8r	.	.	.
.	.	8r	.	8dd-\J	.	.	.	.	.	.	.	16r	.	.	.
.	.	.	.	.	.	.	.	.	.	.	.	16ff\	et	.	.
=82	=82	=82	=82	=82	=82	=82	=82	=82	=82	=82	=82	=82	=82	=82	=82
!	!	!	!	!	!	!	!	!	!	!	!	!LO:TUP:a:problem=klamra łukowa	!	!	!
4G-X\	.	8b-/L	.	8r	.	2.ryy	.	2.ryy	.	2.ryy	.	12dd-X\L	ſti-	.	.
.	.	.	.	.	.	.	.	.	.	.	.	12cc\J	.	.	.
!	!	!	!	!LO:SIC:v:s=8dd-\L	!	!	!	!	!	!	!	!	!	!	!
.	.	8r	.	8dd\L	.	.	.	.	.	.	.	.	.	.	.
.	.	.	.	.	.	.	.	.	.	.	.	12b-\	-pu-	.	.
4G-\	.	8b-/	.	8r	.	.	.	.	.	.	.	4b-\	-lam	.	.
!	!	!	!	!LO:SIC:v:s=8dd-\	!	!	!	!	!	!	!	!	!	!	!
.	.	8r	.	8dd\	.	.	.	.	.	.	.	.	.	.	.
4D-X\	.	8b-/J	.	8r	.	.	.	.	.	.	.	4r	.	.	.
!	!	!	!	!LO:SIC:v:s=8dd-\J	!	!	!	!	!	!	!	!	!	!	!
.	.	8r	.	8dd\J	.	.	.	.	.	.	.	.	.	.	.
!LO:LB:g=original	!	!	!	!	!	!	!	!	!	!	!	!	!	!	!
=83	=83	=83	=83	=83	=83	=83	=83	=83	=83	=83	=83	=83	=83	=83	=83
!	!	!	!	!	!	!	!	!	!	!	!	!	!	!LO:N:vis=00	!LO:N:vis=00
4E-\	.	8r	.	8r	.	2.ryy	.	2.ryy	.	2.ryy	.	4gg-X\	ſi-	0.r	0.r
.	.	8ee-\	.	8gg-X\L	.	.	.	.	.	.	.	.	.	.	.
.	.	.	.	8qqgg-/	.	.	.	.	.	.	.	.	.	.	.
4F\	.	8dd-X\L	.	8ff\	.	.	.	.	.	.	.	8ff\	-ca	.	.
.	.	.	.	8qqff/	.	.	.	.	.	.	.	.	.	.	.
.	.	8cc\	.	8ee-\	.	.	.	.	.	.	.	8ee-\	per-	.	.
.	.	.	.	8qqee-/	.	.	.	.	.	.	.	.	.	.	.
!	!	!	!	!LO:SIC:v:s=8dd-\	!	!	!	!	!	!	!	!	!	!	!
4FF/	.	8b-\	.	8dd\	.	.	.	.	.	.	.	8dd-X\	-se-	.	.
!	!	!	!	!LO:SIC:v:s=8qqdd-/	!	!	!	!	!	!	!	!	!	!	!
.	.	.	.	8qqdd/	.	.	.	.	.	.	.	.	.	.	.
.	.	8a\J	.	8cc\J	.	.	.	.	.	.	.	8cc\	-qve-	.	.
=84	=84	=84	=84	=84	=84	=84	=84	=84	=84	=84	=84	=84	=84	=84	=84
.	.	.	.	8qqcc/	.	.	.	.	.	.	.	.	.	.	.
2G-X;\	.	2b-;\	.	2dd-X;\	.	2.ryy	.	2.ryy	.	2.ryy	.	4b-\	-ris	.	.
.	.	.	.	.	.	.	.	.	.	.	.	4r	.	.	.
4r	.	4r	.	4r	.	.	.	.	.	.	.	8r	.	.	.
.	.	.	.	.	.	.	.	.	.	.	.	16r	.	.	.
.	.	.	.	.	.	.	.	.	.	.	.	16b-\	et	.	.
!	!	!	!	!LO:LB:g=original	!	!	!	!	!	!	!	!	!	!	!
=85	=85	=85	=85	=85	=85	=85	=85	=85	=85	=85	=85	=85	=85	=85	=85
4En\	.	8r	.	8r	.	2.ryy	.	2.ryy	.	2.ryy	.	8ggn\	ſti-	.	.
!	!	!LO:SIC:v:s=8een\	!	!	!	!	!	!	!	!	!	!	!	!	!
.	.	8ee-\	.	8ggn\	.	.	.	.	.	.	.	16gg\	-pu-	.	.
.	.	.	.	.	.	.	.	.	.	.	.	16gg\	-lam	.	.
!	!	!LO:SIC:v:s=8een\L	!	!	!	!	!	!	!	!	!	!	!	!	!
8E\	.	8ee-\L	.	8gg\L	.	.	.	.	.	.	.	8gg\	ſi-	.	.
8r	.	16dd\L	.	16ff\L	.	.	.	.	.	.	.	16ff\	-cam	.	.
.	.	16cc\JJ	.	16ee-\JJ	.	.	.	.	.	.	.	16ee-\	per-	.	.
!LO:TX:t=P:problem=mixed beam	!	!LO:LB:g=original	!	!	!	!	!	!	!	!	!	!	!	!	!
8F\L	.	8b-\L	.	8ddn\L	.	.	.	.	.	.	.	8ddn\	-se-	.	.
8FF/J	.	8a\J	.	8cc\J	.	.	.	.	.	.	.	8cc\	-qve-	.	.
=86	=86	=86	=86	=86	=86	=86	=86	=86	=86	=86	=86	=86	=86	=86	=86
4BB-/	.	4b-\	.	4b-\	.	2.ryy	.	2.ryy	.	2.ryy	.	8b-\	-ris	.	.
.	.	.	.	.	.	.	.	.	.	.	.	8ff\	per-	.	.
!	!	!	!	!	!	!	!	!	!	!	!	!LO:LB:g=original	!	!	!
4r	.	4r	.	4r	.	.	.	.	.	.	.	16dd\	-ſe-	.	.
.	.	.	.	.	.	.	.	.	.	.	.	16cc\	-qve-	.	.
.	.	.	.	.	.	.	.	.	.	.	.	8b-\	-ris	.	.
4r	.	4r	.	4r	.	.	.	.	.	.	.	4r	.	.	.
!	!	!	!	!	!	!	!	!	!	!	!	!	!	!LO:LB:g=original	!
=87	=87	=87	=87	=87	=87	=87	=87	=87	=87	=87	=87	=87	=87	=87	=87
!	!	!	!	!	!	!	!	!	!	!	!	!LO:N:vis=00	!	!	!
4BB-/	.	(8d/L	f	(8b-\L	f	2.ryy	.	2.ryy	.	2.ryy	.	0.r	.	4r	4r
.	.	8c/)	.	8a\)	.	.	.	.	.	.	.	.	.	.	.
4r	.	(8e-/	.	(8cc\	.	.	.	.	.	.	.	.	.	4r	4r
.	.	8d/)	.	8b-\)	.	.	.	.	.	.	.	.	.	.	.
4r	.	(8b-/	.	(8dd\	.	.	.	.	.	.	.	.	.	8b-\L	8dd\L
.	.	8a/J)	.	8cc\J)	.	.	.	.	.	.	.	.	.	8f\J	8cc\J
!	!	!	!	!	!	!	!	!	!	!	!	!	!	!	!LO:LB:g=original
=88	=88	=88	=88	=88	=88	=88	=88	=88	=88	=88	=88	=88	=88	=88	=88
4r	.	16cc\LL	.	16ee-\LL	.	2.ryy	.	2.ryy	.	2.ryy	.	.	.	16cc\LL	16ee-\LL
.	.	16b-\	.	16dd\	.	.	.	.	.	.	.	.	.	16b-\	16dd\
.	.	16ee-\	.	16gg\	.	.	.	.	.	.	.	.	.	16ee-\	16gg\
.	.	16dd\JJ	.	16ff\JJ	.	.	.	.	.	.	.	.	.	16dd\JJ	16ff\JJ
8r	.	4dd\	.	4ff\	.	.	.	.	.	.	.	.	.	4dd\	4ff\
8B-|\L	.	.	.	.	.	.	.	.	.	.	.	.	.	.	.
8F|\	.	4r	.	4r	.	.	.	.	.	.	.	.	.	4r	4r
8D|\J	.	.	.	.	.	.	.	.	.	.	.	.	.	.	.
=89	=89	=89	=89	=89	=89	=89	=89	=89	=89	=89	=89	=89	=89	=89	=89
!	!	!	!	!	!	!	!	!	!	!	!	!	!	!LO:TX:a:t=1	!
4BB-/	.	(8d/L	p	(8b-\L	.	2.ryy	.	2.ryy	.	2.ryy	.	.	.	2.r	2.r
.	.	8c/)	.	8a\J)	.	.	.	.	.	.	.	.	.	.	.
4r	.	(8e-/	.	(8cc\L	.	.	.	.	.	.	.	.	.	.	.
.	.	8d/)	.	8b-\J)	.	.	.	.	.	.	.	.	.	.	.
!	!	!	!	!LO:LB:g=original	!	!	!	!	!	!	!	!	!	!	!
4r	.	(8b-/	.	(8dd\L	.	.	.	.	.	.	.	.	.	.	.
.	.	8a/J)	.	8cc\J)	.	.	.	.	.	.	.	.	.	.	.
!LO:LB:g=original	!	!	!	!	!	!	!	!	!	!	!	!	!	!	!
=90	=90	=90	=90	=90	=90	=90	=90	=90	=90	=90	=90	=90	=90	=90	=90
4r	.	16cc\LL	.	(16ee-\LL	.	2.ryy	.	2.ryy	.	2.ryy	.	.	.	4r	4r
.	.	16b-\	.	16dd\)	.	.	.	.	.	.	.	.	.	.	.
.	.	16ee-\	.	(16gg\	.	.	.	.	.	.	.	.	.	.	.
.	.	16dd\JJ	.	16ff\JJ)	.	.	.	.	.	.	.	.	.	.	.
8r	.	4dd\	.	4ff\	.	.	.	.	.	.	.	.	.	8r	8r
8B-\	.	.	.	.	.	.	.	.	.	.	.	.	.	8dd\L	8ff\L
4BB-/	.	4r	.	4r	.	.	.	.	.	.	.	.	.	8dd\	8ff\
.	.	.	.	.	.	.	.	.	.	.	.	.	.	8dd\J	8ff\J
!	!	!LO:LB:g=original	!	!	!	!	!	!	!	!	!	!	!	!	!
=91	=91	=91	=91	=91	=91	=91	=91	=91	=91	=91	=91	=91	=91	=91	=91
!	!	!	!	!	!	!	!	!	!	!	!	!LO:N:vis=00	!	!	!
4E-\	f	16gg\LL	.	(16gg\LL	.	2.ryy	.	2.ryy	.	2.ryy	.	0.r	.	4ee-\	4gg\
.	.	16ee-\	.	16ee-\)	.	.	.	.	.	.	.	.	.	.	.
.	.	16ee-\	.	(16ee-\	.	.	.	.	.	.	.	.	.	.	.
.	.	16dd\JJ	.	16dd\JJ)	.	.	.	.	.	.	.	.	.	.	.
4r	.	16dd\LL	.	(16dd\LL	.	.	.	.	.	.	.	.	.	4r	4r
.	.	16cc\	.	16cc\)	.	.	.	.	.	.	.	.	.	.	.
.	.	16cc\	.	(16cc\)	.	.	.	.	.	.	.	.	.	.	.
.	.	16b-\JJ	.	16b-\JJ)	.	.	.	.	.	.	.	.	.	.	.
4C\	.	16b-/LL	.	(16b-/LL	.	.	.	.	.	.	.	.	.	4r	4r
.	.	16a/	.	16a/)	.	.	.	.	.	.	.	.	.	.	.
.	.	16a/	.	(16a/	.	.	.	.	.	.	.	.	.	.	.
.	.	16g/JJ	.	16g/JJ)	.	.	.	.	.	.	.	.	.	.	.
=92	=92	=92	=92	=92	=92	=92	=92	=92	=92	=92	=92	=92	=92	=92	=92
4F\	.	4a/	.	4a/	.	2.ryy	.	2.ryy	.	2.ryy	.	.	.	4r	4r
4FF/	.	4f/	.	4f/	.	.	.	.	.	.	.	.	.	4f/	4cc\
4r	.	4r	.	4r	.	.	.	.	.	.	.	.	.	4r	4r
=93	=93	=93	=93	=93	=93	=93	=93	=93	=93	=93	=93	=93	=93	=93	=93
4E-\	.	16gg\LL	.	16gg\LL	.	2.ryy	.	2.ryy	.	2.ryy	.	.	.	4ee-\	4gg\
.	.	16ee-\	.	16ee-\	.	.	.	.	.	.	.	.	.	.	.
.	.	16bb-\	.	16bb-\	.	.	.	.	.	.	.	.	.	.	.
.	.	16gg\JJ	.	16gg\JJ	.	.	.	.	.	.	.	.	.	.	.
4D\	.	4ff\	.	4ff\	.	.	.	.	.	.	.	.	.	4dd\	4ff\
4F\	.	16ee-\LL	.	16ee-\LL	.	.	.	.	.	.	.	.	.	4cc\	4ee-\
.	.	16cc\	.	16cc\	.	.	.	.	.	.	.	.	.	.	.
.	.	16gg\	.	16gg\	.	.	.	.	.	.	.	.	.	.	.
.	.	16ee-\JJ	.	16ee-\JJ	.	.	.	.	.	.	.	.	.	.	.
!	!	!	!	!LO:LB:g=original	!	!	!	!	!	!	!	!	!	!LO:LB:g=original	!
=94	=94	=94	=94	=94	=94	=94	=94	=94	=94	=94	=94	=94	=94	=94	=94
4B-\	.	4dd\	.	4dd\	.	2.ryy	.	2.ryy	.	2.ryy	.	.	.	4b-\	4dd\
4E-\	.	16cc\LL	.	16cc\LL	.	.	.	.	.	.	.	.	.	4r	4r
.	.	16bn\	.	16bn\	.	.	.	.	.	.	.	.	.	.	.
.	.	16cc\	.	16cc\	.	.	.	.	.	.	.	.	.	.	.
.	.	16ee-\JJ	.	16ee-\JJ	.	.	.	.	.	.	.	.	.	.	.
4F\	.	16ee-\LL	.	16ee-\LL	.	.	.	.	.	.	.	.	.	4r	4r
.	.	16dd\	.	16dd\	.	.	.	.	.	.	.	.	.	.	.
.	.	16dd\	.	16dd\	.	.	.	.	.	.	.	.	.	.	.
.	.	16cc\JJ	.	16cc\JJ	.	.	.	.	.	.	.	.	.	.	.
=95	=95	=95	=95	=95	=95	=95	=95	=95	=95	=95	=95	=95	=95	=95	=95
!	!	!	!	!	!	!	!	!	!	!	!	!LO:N:vis=0	!	!	!
4BB-/	.	16r	.	16r	.	2.ryy	.	2.ryy	.	2.ryy	.	1.r	.	4b-\	4dd\
.	.	16b-\LL	.	16b-X/LL	.	.	.	.	.	.	.	.	.	.	.
.	.	16cc\	.	16cc/	.	.	.	.	.	.	.	.	.	.	.
.	.	16dd\JJ	.	16dd/JJ	.	.	.	.	.	.	.	.	.	.	.
!	!	!LO:LB:g=original	!	!	!	!	!	!	!	!	!	!	!	!	!
4r	.	16ee-\LL	.	16ee-\LL	.	.	.	.	.	.	.	.	.	4r	4r
.	.	16ff\	.	16ff\	.	.	.	.	.	.	.	.	.	.	.
.	.	16gg\	.	16gg\	.	.	.	.	.	.	.	.	.	.	.
.	.	16aa\JJ	.	16aa\JJ	.	.	.	.	.	.	.	.	.	.	.
4r	.	16bb-\LL	.	16bb-\LL	.	.	.	.	.	.	.	.	.	4r	4r
.	.	16ff\	.	16ff\	.	.	.	.	.	.	.	.	.	.	.
.	.	16dd\	.	16dd\	.	.	.	.	.	.	.	.	.	.	.
.	.	16b-\JJ	.	16b-\JJ	.	.	.	.	.	.	.	.	.	.	.
!	!	!	!	!	!	!	!	!	!	!	!	!	!	!	!LO:LB:g=original
=96	=96	=96	=96	=96	=96	=96	=96	=96	=96	=96	=96	=96	=96	=96	=96
4E-\	.	16cc\LL	.	16cc\LL	.	2.ryy	.	2.ryy	.	2.ryy	.	.	.	4r	4r
.	.	16bn\	.	16bn\	.	.	.	.	.	.	.	.	.	.	.
.	.	16cc\	.	16cc\	.	.	.	.	.	.	.	.	.	.	.
.	.	16b\JJ	.	16b\JJ	.	.	.	.	.	.	.	.	.	.	.
4E-\	.	16cc\LL	.	16cc\LL	.	.	.	.	.	.	.	.	.	8r	8r
.	.	16b\	.	16b\	.	.	.	.	.	.	.	.	.	.	.
.	.	16cc\	.	16cc\	.	.	.	.	.	.	.	.	.	16r	16r
.	.	16ee-\JJ	.	16ee-\JJ	.	.	.	.	.	.	.	.	.	16ee-\	16gg\
4F\	.	16ee-X\LL	.	16ee-\LL	.	.	.	.	.	.	.	.	.	16ee-\LL	16gg\LL
.	.	16dd\	.	16dd\	.	.	.	.	.	.	.	.	.	16dd\	16ff\
.	.	16dd\	.	16dd\	.	.	.	.	.	.	.	.	.	16dd\	16ff\
.	.	16cc\JJ	.	16cc\JJ	.	.	.	.	.	.	.	.	.	16cc\JJ	16ee-\JJ
=97	=97	=97	=97	=97	=97	=97	=97	=97	=97	=97	=97	=97	=97	=97	=97
4BB-/	.	4b-/	.	4b-/	.	2.ryy	.	2.ryy	.	2.ryy	.	2.r	.	2b-\	2dd\
4r	.	4B-/	.	4B-/	.	.	.	.	.	.	.	.	.	.	.
4r	.	4r	.	4r	.	.	.	.	.	.	.	.	.	4r	4r
!LO:LB:g=original	!	!	!	!LO:PB:g=original	!	!	!	!	!	!LO:LB:g=original	!	!	!	!	!
=98||	=98||	=98||	=98||	=98||	=98||	=98||	=98||	=98||	=98||	=98||	=98||	=98||	=98||	=98||	=98||
*	*	*	*	*	*	*	*	*	*	*	*	*	*	*ITrd-2c-3	*ITrd-2c-3
*k[a-b-e-]	*	*k[e-b-a-]	*	*k[e-b-a-]	*	*k[]	*	*k[a-b-e-]	*	*k[a-b-e-]	*	*k[b-a-e-]	*	*k[b-e-a-]	*k[b-e-a-]
*M4/4	*	*M4/4	*	*M4/4	*	*M4/4	*	*M4/4	*	*M4/4	*	*M4/4	*	*M4/4	*M4/4
*met(c)	*	*met(c)	*	*met(c)	*	*met(c)	*	*met(c)	*	*met(c)	*	*met(c)	*	*met(c)	*met(c)
!LO:TX:t=P:znaki:problem= A- zamiast AA-	!	!	!	!	!	!	!	!	!	!	!	!	!	!	!
!LO:TX:b:i:t=Miseremini	!	!LO:TX:b:i:t=Mise[re]mini	!	!LO:TX:b:i:t=Miseremini	!	!	!	!LO:TX:t=P:znaki:problem= c- zamiast B-	!	!	!	!	!	!	!
!LO:TX:a:i:t=Tutti	!	!LO:TX:a:i:t=Adagio	!	!LO:TX:a:i:t=Adagio	!	!LO:TX:a:i:t=Tarde	!	!LO:TX:a:i:t=Tarde	!	!LO:TX:t=P:problem=usunięte dwie 00r	!	!LO:TX:t=P:znaki:problem= ee- zamiast e-	!	!	!
!	!	!	!	!	!	!LO:SIC:v:s=4E-\	!	!	!	!	!	!	!	!	!
4E-\	.	8g/L	.	8b-\L	p	4E\	mi-	4B-\	mi-	4g\	mi-	4ee-\	Mi-	4e-/	4e-/
.	.	8r	.	8b-\	.	.	.	.	.	.	.	.	.	.	.
4r	.	8g/J	.	8b-\	.	4G\	-se-	4B-\	-se-	4g\	-se-	4ee-\	-se-	4e-/	4e-/
.	.	8r	.	8b-\J	.	.	.	.	.	.	.	.	.	.	.
!	!	!LO:LB:g=original	!	!	!	!LO:SIC:v:s=4A-\	!	!	!	!	!	!	!	!	!
2r	.	8a-/L	.	8cc\L	.	4A\	-re-	4c\	-re-	4a-\	-re-	4ee-\	-re-	4e-/	4e-/
.	.	8r	.	8r	.	.	.	.	.	.	.	.	.	.	.
!	!	!	!	!LO:SIC:v:s=8b-\J	!	!	!	!	!	!	!	!	!	!	!
.	.	8f/J	.	8cc\J	.	8An\	-mi-	8c\	-mi-	8f\	-mi-	8ee-\	-mi-	4e-/	4e-/
.	.	8r	.	8r	.	8A\	-ni	8c\	-ni	8f\	-ni	8ee-\	-ni	.	.
=99	=99	=99	=99	=99	=99	=99	=99	=99	=99	=99	=99	=99	=99	=99	=99
!	!	!	!	!	!	!LO:SIC:v:s=4B-\	!	!	!	!	!	!	!	!	!
00r	.	8f/L	.	8b-\L	.	4B\	me-	4B-\	me-	2f\	me-	4dd\	me-	4B-/	4B-/
.	.	8r	.	8r	.	.	.	.	.	.	.	.	.	.	.
.	.	8f/J	.	8cc\J	.	4An\	.	4c\	.	.	.	4ee-\	.	4e-/	4e-/
.	.	8r	.	8r	.	.	.	.	.	.	.	.	.	.	.
!	!	!	!	!	!	!	!	!LO:LB:g=original	!	!	!	!	!	!	!
!	!	!	!	!	!	!LO:SIC:v:s=4B-\	!	!	!	!	!	!	!	!LO:LB:g=original	!
.	.	8g/L	.	8cc\L	.	4B\	.	2c\	.	(4g\	.	4ee-\	.	4B-/	4B-/
.	.	8r	.	8r	.	.	.	.	.	.	.	.	.	.	.
!	!	!	!	!	!	!LO:SIC:v:s=4BB-/	!	!	!	!	!	!	!	!	!
.	.	8f/J	.	8cc\J	.	4BB/	.	.	.	4f\)	.	4dd\	.	4B-/	4B-/
.	.	8r	.	8r	.	.	.	.	.	.	.	.	.	.	.
=100	=100	=100	=100	=100	=100	=100	=100	=100	=100	=100	=100	=100	=100	=100	=100
!	!	!	!	!	!	!LO:SIC:v:s=4E-\	!	!	!	!	!	!	!	!	!
.	.	4g/	.	4b-\	.	4E\	-i	4B-\	-i	4g\	-i	4ee-\	-i	4e-/	4e-/
.	.	4r	.	4r	.	4r	.	4r	.	4r	.	4r	.	4r	4r
.	.	4r	.	4r	.	4r	.	4r	.	4r	.	4r	.	2r	2r
!	!	!	!	!	!	!LO:LB:g=original	!	!	!	!	!	!	!	!	!
.	.	8b-\L	.	8dd\L	.	8D/	ſal-	8d\	ſal-	8b-\	ſal-	8ff\	sal-	.	.
!	!	!	!	!	!	!LO:SIC:v:s=8BB-/	!	!	!	!	!	!	!	!	!
.	.	8b-\J	.	8dd\J	.	8BB/	-tem	8d\	-tem	8b-\	-tem	8ff\	-tem	.	.
!	!	!	!	!LO:LB:g=original	!	!	!	!	!	!	!	!	!	!	!LO:LB:g=original
=101	=101	=101	=101	=101	=101	=101	=101	=101	=101	=101	=101	=101	=101	=101	=101
!	!	!	!	!	!	!LO:SIC:v:s=4E-\	!	!	!	!	!	!	!	!LO:TX:a:t=1	!
.	.	8b-\L	.	8ee-\L	.	4E\	vos	4e-\	vos	4b-\	vos	4gg\	vos	1r	1r
.	.	8r	.	8r	.	.	.	.	.	.	.	.	.	.	.
!	!	!	!	!	!	!LO:SIC:v:s=4BB-/	!	!	!	!	!	!	!	!	!
.	.	8b-\J	.	8dd\J	.	4BB/	a-	4d\	a-	4b-\	a-	4ff\	a-	.	.
.	.	8r	.	8r	.	.	.	.	.	.	.	.	.	.	.
!	!	!	!	!	!	!	!	!	!	!	!	!LO:LB:g=original	!	!	!
.	.	8an/L	.	8cc\L	.	4F\	-mi-	4.c\	-mi-	4an\	-mi-	4ee-\	-mi-	.	.
.	.	8r	.	8r	.	.	.	.	.	.	.	.	.	.	.
!	!	!	!	!LO:SIC:v:s=8b-\J	!	!LO:SIC:v:s=4B-\	!	!	!	!	!	!	!	!	!
.	.	8f/J	.	8cc\J	.	4B\	-ci	.	.	4f\	-ci	4dd\	-ci	.	.
.	.	8r	.	8r	.	.	.	8e-\	-ci	.	.	.	.	.	.
!	!	!	!	!	!	!	!	!	!	!LO:LB:g=original	!	!	!	!	!
=102	=102	=102	=102	=102	=102	=102	=102	=102	=102	=102	=102	=102	=102	=102	=102
!	!	!	!	!	!	!	!	!	!	!LO:SIC:v:s=2an\	!	!	!	!	!
.	.	8a-/L	.	8ff\L	.	2F\	me-	2f\	me-	2a-\	me-	2cc\	me-	2r	2r
.	.	8r	.	8r	.	.	.	.	.	.	.	.	.	.	.
.	.	8a-/J	.	8ff\J	.	.	.	.	.	.	.	.	.	.	.
.	.	8r	.	8r	.	.	.	.	.	.	.	.	.	.	.
!	!	!	!	!	!	!LO:SIC:v:s=4BB-/	!	!	!	!	!	!	!	!	!
.	.	4b-\	.	4ff\	.	4BB/	-i	4f\	-i	4b-\	-i	4dd\	-i	4B-/	4B-/
.	.	4r	.	4r	.	4r	.	4r	.	4r	.	4r	.	4r	4r
!	!	!LO:LB:g=original	!	!	!	!	!	!	!	!	!	!	!	!	!
=103	=103	=103	=103	=103	=103	=103	=103	=103	=103	=103	=103	=103	=103	=103	=103
*clefC4	*	*	*	*	*	*	*	*	*	*	*	*	*	*	*
!LO:TX:t=P:problem=znaki przykluczowe	!	!	!	!	!	!	!	!	!	!	!	!	!	!	!
8e-\L	.	8ee-\L	.	8ee-\L	.	2r	.	8e-\	ſal-	2r	.	4ee-\	ſal-	00r	00r
8e-\	.	8r	.	8r	.	.	.	8e-\	-tem	.	.	.	.	.	.
8e-\	.	8ee-\J	.	8ee-\J	.	.	.	8e-\	vos	.	.	4ee-\	-tem	.	.
8e-\J	.	8r	.	8r	.	.	.	8e-\	a-	.	.	.	.	.	.
2e-\	.	8g/L	f	8b-\L	f	8G\	ſal-	4e-\	-mi-	8g\	ſal-	8b-\	vos	.	.
.	.	8g/	.	8b-\	.	8G\	-tem	.	.	8g\	-tem	8b-\	a-	.	.
!	!	!	!	!	!	!LO:SIC:v:s=8A-\	!	!	!	!	!	!	!	!	!
.	.	8a-/	.	8cc\	.	8A\	vos	8e-\	-ci	8a-\	vos	8cc\	-mi-	.	.
!	!	!	!	!	!	!LO:SIC:v:s=8A-\	!	!LO:TX:t=P:problem=sylaba me- poprawiona na a-	!	!	!	!	!	!	!
.	.	8a-/J	.	8cc\J	.	8A\	a-	8e-\	a-	8a-\	a-	8cc\	-ci	.	.
!	!	!	!	!	!	!	!	!LO:LB:g=original	!	!	!	!	!	!	!
=104	=104	=104	=104	=104	=104	=104	=104	=104	=104	=104	=104	=104	=104	=104	=104
!	!	!	!	!	!	!LO:SIC:v:s=4B-\	!	!	!	!	!	!	!	!	!
4e-\	.	4b-/	.	4dd-X\	.	4B\	-mi-	4e-\	-mi-	4b-\	-mi-	4dd-X\	ami-	.	.
!	!	!	!	!	!	!LO:SIC:v:s=8A-\	!	!	!	!	!	!	!	!	!
8e-\	.	8a-/	.	8cc\	.	8A\	-ci	8e-\	-ci	8a-\	-ci	8cc\	-ci	.	.
8r	.	8r	.	8r	.	8c\	a-	8r	.	8cc\	me-	8ee-\	a-	.	.
!	!	!	!	!LO:LB:g=original	!	!LO:SIC:v:s=4B-\	!	!	!	!	!	!	!	!	!
4r	.	4r	.	4r	.	4B\	-mi-	4r	.	4b-\	-i	4dd-X\	-mi-	.	.
*clefF4	*	*	*	*	*	*	*	*	*	*	*	*	*	*	*
!LO:TX:t=P:problem=znaki przykluczowe	!	!	!	!	!	!LO:SIC:v:s=8A-\	!	!	!	!	!	!	!	!	!
8r	.	8r	.	8r	.	8A\	-ci	8r	.	8a-\	A-	8cc\	-ci	.	.
!	!	!	!	!	!	!LO:SIC:v:s=8A-\	!	!	!	!	!	!	!	!	!
8A-\	.	8e-/	.	8cc\	.	8A\	a-	8e-\	a-	8cc\	-mi-	8ee-\	a-	.	.
!LO:LB:g=original	!	!	!	!	!	!	!	!	!	!	!	!	!	!	!
=105	=105	=105	=105	=105	=105	=105	=105	=105	=105	=105	=105	=105	=105	=105	=105
!	!	!	!	!	!	!LO:SIC:v:s=8E-\	!	!	!	!	!	!	!	!	!
8E-\L	.	8d-X/L	.	8b-\L	.	8E\	-mi-	8e-\	-mi-	8b-\	-ci	8dd-X\	-mi-	.	.
!	!	!	!	!	!	!LO:SIC:v:s=8AA-/	!	!	!	!	!	!	!	!	!
8AA-\J	.	8c/J	.	8a-\J	.	8AA/	-ci	8e-\	-ci	8a-\	mei	8cc\	-ci	.	.
!	!	!	!	!	!	!	!	!	!	!	!	!LO:N:vis=4	!	!	!
4r	.	4r	.	4r	.	4r	.	4r	.	4r	.	4.r	.	.	.
*clefC4	*	*	*	*	*	*	*	*	*	*	*	*	*	*	*
!LO:TX:t=P:problem=znaki przykluczowe	!	!	!	!	!	!	!	!	!	!	!	!	!	!	!
8f\L	.	8ff\L	.	8ff\L	.	2r	.	8f\	ſal-	2r	.	.	.	.	.
8f\	.	8r	.	8r	.	.	.	8f\	-tem	.	.	8ff\	ſal-	.	.
8f\	.	8ff\J	.	8ff\J	.	.	.	8f\	vos	.	.	4ff\	-tem	.	.
8f\J	.	8r	.	8r	.	.	.	8f\	a-	.	.	.	.	.	.
!	!	!	!	!	!	!LO:LB:g=original	!	!	!	!	!	!LO:LB:g=original	!	!	!
=106	=106	=106	=106	=106	=106	=106	=106	=106	=106	=106	=106	=106	=106	=106	=106
!	!	!	!	!	!	!	!	!	!	!	!	!	!LO:MO:mod=ſal-	!	!
2f\	.	8an/L	.	8cc\L	.	8An\	ſal-	4f\	-mi-	8an\	ſal-	8cc\	ſa-	.	.
.	.	8a/	.	8cc\	.	8A\	-tem	.	.	8a\	-tem	8cc\	-tem	.	.
!	!	!	!	!	!	!LO:SIC:v:s=8B-\	!	!	!	!	!	!	!	!	!
.	.	8b-/	.	8dd\	.	8B\	vos	8f\	-ci	8b-\	vos	8ddn\	vos	.	.
!	!	!	!	!	!	!LO:SIC:v:s=8B-\	!	!	!	!	!	!	!	!	!
.	.	8b-/J	.	8dd\J	.	8B\	a-	8f\	a-	8b-\	a-	8dd\	a-	.	.
!	!	!	!	!	!	!	!	!	!	!LO:PB:g=original	!	!	!	!	!
4f\	.	4cc\	.	4ee-\	.	4c\	-mi-	8f\	-mi-	4cc\	-mi-	4ee-\	-mi-	.	.
.	.	.	.	.	.	.	.	8f\	-ci	.	.	.	.	.	.
!	!	!	!	!	!	!LO:SIC:v:s=8B-\	!	!	!	!	!	!	!	!	!
8f\	.	8b-\	.	8ddn\	.	8B\	-ci	8r	.	8b-\	-ci	8dd\	-ci	.	.
8r	.	8r	.	8r	.	8d\	a-	8r	.	8dd\	a-	8ff\	a-	.	.
!	!	!LO:LB:g=original	!	!	!	!	!	!LO:PB:g=original	!	!	!	!	!	!	!
=107	=107	=107	=107	=107	=107	=107	=107	=107	=107	=107	=107	=107	=107	=107	=107
*clefF4	*	*	*	*	*	*	*	*	*	*	*	*	*	*	*
!LO:TX:t=P:problem=znaki przykluczowe	!	!	!	!	!	!	!	!	!	!	!	!	!	!	!
4r	.	4r	.	4r	.	4c\	-mi-	4r	.	4cc\	-mi-	4ee-\	-mi-	1r	1r
!	!	!	!	!	!	!LO:SIC:v:s=8B-\	!	!	!	!	!	!	!	!	!
8r	.	8r	.	8r	.	8B\	-ci	8r	.	8b-\	-ci	8dd\	-ci	.	.
!	!	!	!	!	!	!LO:SIC:v:s=8A-\	!	!	!	!	!	!	!	!	!
8B-\	.	8f/	.	8dd\	.	8A\	a-	8f\	a-	8dd\	a-	8ff\	a-	.	.
!LO:TX:t=P:problem=mixed beam	!	!	!	!	!	!	!	!	!	!	!	!	!	!	!
!	!	!LO:SIC:v:s=8e-/L	!	!	!	!	!	!	!	!	!	!	!	!	!
8F\L	.	8en/L	.	8cc\L	.	8F\	-mi-	8f\	-mi-	8cc\	-mi-	8ee-\	-mi-	.	.
!	!	!LO:SIC:v:s=8d/J	!	!	!	!LO:SIC:v:s=8BB-/	!	!	!	!	!	!	!	!	!
8BB-/J	.	8c/J	.	8b-\J	.	8BB/	-ci	8f\	-ci	8b-\	-ci	8dd\	-ci	.	.
4r	.	4r	.	4r	.	4r	.	4r	.	4r	.	4r	.	.	.
!	!	!	!	!LO:LB:g=original	!	!	!	!	!	!	!	!	!	!	!
=108	=108	=108	=108	=108	=108	=108	=108	=108	=108	=108	=108	=108	=108	=108	=108
!	!	!	!	!	!	!LO:SIC:v:s=4BB-/	!	!	!	!	!	!	!	!	!
4BB-/	.	8r	.	8r	.	4BB/	ſal-	0r	.	4g-X\	ſal-	4b-\	ſal-	4B-/	4B-/
.	.	8g-X/L	.	8b-/L	.	.	.	.	.	.	.	.	.	.	.
!	!	!	!	!	!	!LO:SIC:v:s=4BB-/	!	!	!	!	!	!	!	!	!
4BB-/	.	8r	.	8r	.	4BB/	-tem	.	.	4f\	-tem	4a-X\	-tem	4B-/	4B-/
.	.	8f/J	.	8a-X/J	.	.	.	.	.	.	.	.	.	.	.
!	!	!	!	!	!	!LO:SIC:v:s=4BB-/	!	!	!	!	!	!	!	!	!
4BB-/	.	8r	.	8g-X/L	.	4BB/	vos	.	.	4e-\	vos	4g-X\	vos	4B-/	4B-/
.	.	8e-/L	.	8r	.	.	.	.	.	.	.	.	.	.	.
!	!	!	!	!	!	!LO:SIC:v:s=4BB-/	!	!	!	!	!	!	!	!	!
4BB-/	.	8r	.	8f/J	.	4BB/	a-	.	.	4d\	a-	4f\	a-	4B-/	4B-/
.	.	8d/J	.	8r	.	.	.	.	.	.	.	.	.	.	.
!LO:LB:g=original	!	!	!	!	!	!	!	!	!	!	!	!	!	!	!
=109	=109	=109	=109	=109	=109	=109	=109	=109	=109	=109	=109	=109	=109	=109	=109
!	!	!	!	!	!	!LO:SIC:v:s=4BB-/	!	!	!	!	!	!	!	!	!
4BB-/	.	8r	.	8r	.	4BB/	-mi-	.	.	4g-X\	-mi-	4b-\	-mi-	4B-/	4B-/
.	.	8g-X/L	.	8b-/L	.	.	.	.	.	.	.	.	.	.	.
!	!	!	!	!	!	!LO:SIC:v:s=4BB-/	!	!	!	!LO:SIC:v:s=4f\	!	!	!	!	!
4BB-/	.	8r	.	8r	.	4BB/	-ci	.	.	4e-\	-ci	4a-X\	-ci	4B-/	4B-/
.	.	8f/J	.	8a-X/J	.	.	.	.	.	.	.	.	.	.	.
!	!	!	!	!	!	!LO:SIC:v:s=4BB-/	!	!	!	!	!	!	!	!	!
4BB-/	.	8r	.	8g-X/L	.	4BB/	me-	.	.	4e-\	me-	4g-X\	me-	4B-/	4B-/
.	.	8e-/L	.	8r	.	.	.	.	.	.	.	.	.	.	.
!	!	!	!	!	!	!LO:SIC:v:s=4BB-/	!	!	!	!	!	!	!	!	!
4BB-/	.	8r	.	8f/J	.	4BB/	-i	.	.	4d\	-i	4f\	-i	4B-/	4B-/
.	.	8d/J	.	8r	.	.	.	.	.	.	.	.	.	.	.
!	!	!	!	!	!	!LO:LB:g=original	!	!	!	!LO:LB:g=original	!	!	!	!	!
=110	=110	=110	=110	=110	=110	=110	=110	=110	=110	=110	=110	=110	=110	=110	=110
8.AAn/L	.	8.c/L	.	8.g-X/L	.	8AAn/	qvi-	8C/	qvi-	8e-\	qvi-	8g-X/	qvi-	1r	1r
.	.	.	.	.	.	8AA/	-a	8C/	-a	8e-\	-a	8g-/	-a	.	.
16AA/K	.	16c/K	.	16g-/K	.	.	.	.	.	.	.	.	.	.	.
!	!	!	!	!	!	!	!	!	!	!	!	!LO:LB:g=original	!	!	!
8.AA/	.	8.c/	.	8.g-/	.	8AA/	ma-	8C/	ma-	8e-\	ma-	8g-\	ma-	.	.
.	.	.	.	.	.	8AA/	-nus	8C/	-nus	8e-\	-nus	8g-\	-nus	.	.
16AA/Jk	.	16c/Jk	.	16g-/Jk	.	.	.	.	.	.	.	.	.	.	.
8.AA/L	.	8.c/L	.	8.g-/L	.	8.AA/	Do-	8.C/	Do-	8.e-\	Do-	8g-\	Do-	.	.
.	.	.	.	.	.	.	.	.	.	.	.	8g-\	-mi-	.	.
16AA/K	.	16c/K	.	16g-/K	.	16AA/	-mi-	16C/	-mi-	16e-\	-mi-	.	.	.	.
8.AA/	.	8.c/	.	8.g-/	.	4AA/	-ni	4C/	-ni	4e-\	-ni	4g-\	-ni	.	.
16AA/Jk	.	16c/Jk	.	16g-/Jk	.	.	.	.	.	.	.	.	.	.	.
!	!	!LO:LB:g=original	!	!	!	!	!	!	!	!	!	!	!	!LO:LB:g=original	!
=111	=111	=111	=111	=111	=111	=111	=111	=111	=111	=111	=111	=111	=111	=111	=111
!LO:SIC:v=8.AAn/L	!	!	!	!LO:SIC:v:s=8.g-/L	!	!	!	!	!	!	!	!LO:SIC:v:s=8.g-/	!	!	!
8.AA-/L	.	8.c/L	.	8.g/L	.	8.AA/	te-	8.C/	te-	8.e-\	te-	8.g/	te-	2r	2r
!LO:SIC:v=16AA/K	!	!	!	!LO:SIC:v:s=16g-/K	!	!	!	!	!	!	!	!LO:SIC:v:s=16g-/	!	!	!
16AA-/K	.	16c/K	.	16g/K	.	16AA/	-ti-	16C/	-ti-	16e-\	-ti-	16g/	-ti-	.	.
!LO:SIC:v=8.AA/	!	!	!	!LO:SIC:v:s=8.g-/	!	!	!	!	!	!	!	!LO:SIC:v:s=4g-/	!	!	!
8.AA-/	.	8.c/	.	8.g/	.	4AA/	-git	4C/	-git	4e-\	-git	4g/	-git	.	.
!LO:SIC:v=16AA/Jk	!	!	!	!LO:SIC:v:s=16g-/Jk	!	!	!	!	!	!	!	!	!	!	!
16AA-/Jk	.	16c/Jk	.	16g/Jk	.	.	.	.	.	.	.	.	.	.	.
!	!	!	!	!LO:SIC:v:s=8qqg-/	!	!	!	!	!	!	!	!	!	!	!
.	.	.	.	8qqg/	.	.	.	.	.	.	.	.	.	.	.
!LO:SIC:v=8.BB-/L	!	!LO:SIC:v:s=4B-/	!	!	!	!LO:SIC:v:s=4BB-/	!	!	!	!	!	!	!	!	!
8.AA-/L	.	4c/	.	4f/	.	4BB/	me	4D/	me	4d\	me	4f/	me	4B-/	4B-/
!LO:SIC:v=16BB-/Jk	!	!	!	!	!	!	!	!	!	!	!	!	!	!	!
16AA-/Jk	.	.	.	.	.	.	.	.	.	.	.	.	.	.	.
4BB-/	.	4r	.	4r	.	4r	.	4r	.	4r	.	4r	.	4r	4r
!	!	!	!	!	!	!	!	!LO:LB:g=original	!	!	!	!	!	!	!
=112	=112	=112	=112	=112	=112	=112	=112	=112	=112	=112	=112	=112	=112	=112	=112
4E-\	.	8gn/L	.	8b-\L	.	4G\	mi-	0r	.	4gn\	mi-	4b-\	mi-	00r	00r
.	.	8r	.	8r	.	.	.	.	.	.	.	.	.	.	.
!	!	!	!	!	!	!LO:SIC:v:s=4A-\	!	!	!	!	!	!	!	!	!
4r	.	8a-/J	.	8cc\J	.	4A\	-se-	.	.	4a-\	-se-	4cc\	-se-	.	.
.	.	8r	.	8r	.	.	.	.	.	.	.	.	.	.	.
2r	.	8g/L	.	8b-\L	.	8G\	-re-	.	.	4g\	-re-	8b-\L	-re-	.	.
.	.	8r	.	8r	.	8G\	-mi-	.	.	.	.	8ee-\J	.	.	.
.	.	8g/J	.	8dd\J	.	8F\	-ni	.	.	8g\	-mi-	8dd\	-mi-	.	.
.	.	8r	.	8r	.	8G\	me-	.	.	8g\	-ni	8ee-\	-ni	.	.
=113	=113	=113	=113	=113	=113	=113	=113	=113	=113	=113	=113	=113	=113	=113	=113
4B-\	.	8g/L	.	8b-\L	.	(4G\	.	.	.	4g\	m-	4b-\	me-	.	.
.	.	8r	.	8r	.	.	.	.	.	.	.	.	.	.	.
4BB-/	.	8f/J	.	8a-X\J	.	4F\	.	.	.	(4f\	.	4a-X\	.	.	.
.	.	8r	.	8r	.	.	.	.	.	.	.	.	.	.	.
!	!	!	!	!	!	!LO:SIC:v:s=4E-\)	!	!	!	!	!	!	!	!	!
4E-\	.	4e-/	.	4gn/	.	4E\)	-i	.	.	4e-\)	-ei	4gn\	-i	.	.
4r	.	4r	.	4r	.	4r	.	.	.	4r	.	4r	.	.	.
!	!	!LO:PB:g=original	!	!	!	!LO:LB:g=original	!	!	!	!LO:LB:g=original	!	!	!	!	!
=114	=114	=114	=114	=114	=114	=114	=114	=114	=114	=114	=114	=114	=114	=114	=114
4E-\	.	8b-\L	.	8b-\L	.	4G\	ſal-	4B-\	ſal-	4gn\	ſal-	4b-\	ſal-	.	.
.	.	8r	.	8r	.	.	.	.	.	.	.	.	.	.	.
!	!	!	!	!	!	!LO:SIC:v:s=4A-\	!	!	!	!	!	!	!	!	!
4r	.	8cc\J	.	8cc\J	.	4A\	-tem	4c\	-tem	4a-\	-tem	4cc\	-tem	.	.
.	.	8r	.	8r	.	.	.	.	.	.	.	.	.	.	.
!	!	!	!	!LO:LB:g=original	!	!	!	!	!	!	!	!LO:PB:g=original	!	!	!
2r	.	8b-\L	.	8b-\L	.	8G\	Vos	8B-\	vos	8g\	vos	8b-\L	vos	.	.
.	.	8r	.	8r	.	8G\	a-	8e-\	a-	8g\	a-	8ee-\J	a-	.	.
.	.	8cc\J	.	8dd\J	.	8F\	-mi-	8d\	-mi-	8g\	-mi-	8dd\	-mi-	.	.
.	.	8r	.	8r	.	8G\	-ci	8e-\	-ci	8g\	-ci	8ee-\	-ci	.	.
!LO:LB:g=original	!	!	!	!	!	!	!	!	!	!	!	!	!	!	!
=115	=115	=115	=115	=115	=115	=115	=115	=115	=115	=115	=115	=115	=115	=115	=115
4B-\	.	8b-/L	.	8b-/L	.	4G\	m-	4B-\	me-	4g\	m-	4b-\	me-	.	.
.	.	8r	.	8r	.	.	.	.	.	.	.	.	.	.	.
4BB-/	.	8a-X/J	.	8a-X/J	.	(4F\	-ei	4A-\	.	(4f\	-ei	4a-X\	.	.	.
.	.	8r	.	8r	.	.	.	.	.	.	.	.	.	.	.
!	!	!	!	!	!	!LO:SIC:v:s=4E-\)	!	!	!	!	!	!	!	!	!
4E-\	.	4g/	.	4g/	.	4E\)	.	4G\	-i	4e-\)	.	4gn\	-i	.	.
4r	.	4r	.	4r	.	4r	.	4r	.	4r	.	4r	.	.	.
=116	=116	=116	=116	=116	=116	=116	=116	=116	=116	=116	=116	=116	=116	=116	=116
8.AAn/L	.	8.c/L	.	8.g-X/L	.	8AAn/	qvi-	8C/	qvi-	8e-\	qvi-	8g-X\	qvi-	1r	1r
.	.	.	.	.	.	8AA/	-a	8C/	-a	8e-\	-a	8g-\	-a	.	.
16AA/K	.	16c/K	.	16g-/K	.	.	.	.	.	.	.	.	.	.	.
8.AA/	.	8.c/	.	8.g-/	.	8AA/	ma-	8C/	ma-	8e-\	ma-	8g-\	ma-	.	.
.	.	.	.	.	.	8AA/	-nus	8C/	-nus	8e-\	-nus	8g-\	-nus	.	.
16AA/Jk	.	16c/Jk	.	16g-/Jk	.	.	.	.	.	.	.	.	.	.	.
8.AA/L	.	8.c/L	.	8.g-/L	.	8.AA/	Do-	8.C/	Do-	8.e-\	Do-	8.g-\	Do-	.	.
16AA/K	.	16c/K	.	16g-/K	.	16AA/	-mi-	16C/	-mi-	16e-\	-mi-	16g-\	-mi-	.	.
8.AA/	.	8.c/	.	8.g-/	.	4AA/	-ni	4C/	-ni	4e-\	-ni	4g-\	-ni	.	.
16AA/Jk	.	16c/Jk	.	16g-/Jk	.	.	.	.	.	.	.	.	.	.	.
!	!	!	!	!	!	!	!	!LO:LB:g=original	!	!	!	!	!	!	!LO:LB:g=original
=117	=117	=117	=117	=117	=117	=117	=117	=117	=117	=117	=117	=117	=117	=117	=117
!	!	!	!	!	!	!LO:SIC:v:s=4BB-/	!	!	!	!	!	!	!	!	!
8.BB-/L	.	8.d/L	.	8.f/L	.	4BB/	te-	4D/	te-	4d\	te-	4f/	te-	2r	2r
16BB-/K	.	16d/K	.	16f/K	.	.	.	.	.	.	.	.	.	.	.
8.AAn/	.	8.c/	.	8.g-X/	.	4AAn/	.	4E-/	.	4e-\	.	4g-X/	.	.	.
16AA/Jk	.	16c/Jk	.	16g-/Jk	.	.	.	.	.	.	.	.	.	.	.
!	!	!	!	!	!	!	!	!	!	!LO:LB:g=original	!	!	!	!	!
!	!	!	!	!LO:LB:g=original	!	!LO:SIC:v:s=8.BB-/	!	!	!	!	!	!	!	!	!
8.BB-/L	.	8.d/L	.	8.f/L	.	8.BB/	.	8.F/	.	8.d\	.	8.f/	.	8.B-/L	8.B-/L
!	!	!	!	!	!	!LO:SIC:v:s=16BB-/	!	!	!	!	!	!	!	!	!
16BB-/K	.	16d/K	.	16f/K	.	16BB/	-ti-	16A-/	-ti-	16d\	-ti-	16f/	-ti-	16B-/J	16B-/K
!	!	!	!	!	!	!LO:SIC:v:s=4BB-/	!	!	!	!	!	!	!	!	!
8.BB-/	.	8.d/	.	8.f/	.	4BB/	-git	4A-/	-git	4d\	-git	4f/	-git	8.B-/L	8.B-/
16BB-/Jk	.	16d/Jk	.	16f/Jk	.	.	.	.	.	.	.	.	.	16B-/J	16B-/Jk
=118	=118	=118	=118	=118	=118	=118	=118	=118	=118	=118	=118	=118	=118	=118	=118
!	!	!	!	!	!	!LO:SIC:v:s=4E-\	!	!	!	!	!	!	!	!	!
4EE-/	.	4e-/	.	4gn/	.	4E\	me	4G/	me	4e-\	me	4gn\	me	4e-/	4e-/
4r	.	4r	.	4r	.	8r	.	8r	.	8r	.	8r	.	4r	4r
!	!	!	!	!	!	!LO:SIC:v:s=8E-\	!	!	!	!	!	!	!	!	!
.	.	.	.	.	.	8E\	A-	8e-\	A-	8g\	A-	8b-\	a-	.	.
!	!	!	!	!	!	!LO:SIC:v:s=4E-\	!	!	!	!	!	!	!	!	!
2r	.	2r	.	2r	.	4E\	-mi-	4e-\	-mi-	4g\	-mi-	4b-\	-mi-	2r	2r
!	!	!	!	!	!	!LO:SIC:v:s=4E-\	!	!	!	!	!	!	!	!	!
.	.	.	.	.	.	4E\	-[ci]	4e-\	-ci	4e-\	-ci	4g\	-ci	.	.
==	==	==	==	==	==	==;;	==	==	==	==	==	==	==	==	==
*-	*-	*-	*-	*-	*-	*-	*-	*-	*-	*-	*-	*-	*-	*-	*-
!!!system-decoration: [(s1,s2)][(s3,s4,s5,s6)][(s7,s8)]s9
!!!RDF**kern: | = vertical stroke
!!!RDF**kern: > = above
!!!RDF**kern: < = below
!!!RDF**dynam: p = "pia", fontstyle="bold-italic"
!!!RDF**dynam: f = "ffor", fontstyle="bold-italic"
!!!ENC: Katarzyna Serwa
!!!END: 2022-01-24
!!!ENC: Mateusz Solarz
!!!END: 2020-02-03
!!!YEC: Copyright 2022 Narodowy Instytut Fryderyka Chopina (https://polishscores.org)
!!!YEM: License CC-BY-4.0 (https://creativecommons.org/licenses/by/4.0)
